;FLAVOR:Marlin
;TIME:6739
;Filament used: 6.11794m
;Layer height: 0.2
;MINX:39.312
;MINY:35.539
;MINZ:0.3
;MAXX:120.553
;MAXY:124.461
;MAXZ:17.5
;Generated with Cura_SteamEngine 4.4.0
M140 S60
M105
M190 S60
M104 S210
M105
M109 S210
M82 ;absolute extrusion mode
G28 ;Home
G1 Z15.0 F6000 ;Move the platform down 15mm
;Prime the extruder
G92 E0
G1 F200 E3
G92 E0
G92 E0
G92 E0
G1 F1500 E-5
;LAYER_COUNT:82
;LAYER:0
M107
G1 F600 Z1.3
G0 F3600 X41.131 Y41.595 Z1.3
;TYPE:SKIRT
G1 F600 Z0.3
G1 F1500 E0
G1 X41.581 Y41.167 E0.03098
G1 X41.855 Y40.948 E0.04848
G1 X41.941 Y40.882 E0.05389
G1 X42.142 Y40.731 E0.06643
G1 X42.642 Y40.416 E0.09592
G1 X42.886 Y40.289 E0.10964
G1 X42.996 Y40.234 E0.11578
G1 X43.268 Y40.104 E0.13082
G1 X43.553 Y39.982 E0.14628
G1 X44.976 Y39.447 E0.22213
G1 X47.534 Y38.438 E0.35932
G1 X50.012 Y37.379 E0.49376
G1 X53.077 Y35.953 E0.66241
G1 X53.146 Y35.92 E0.66623
G1 X53.645 Y35.723 E0.693
G1 X54.167 Y35.603 E0.71972
G1 X54.635 Y35.563 E0.74315
G1 X55.732 Y35.54 E0.79789
G1 X55.807 Y35.539 E0.80163
G1 X68.905 Y35.539 E1.4551
G1 X69.603 Y35.549 E1.48992
G1 X70.137 Y35.597 E1.51667
G1 X70.658 Y35.723 E1.54341
G1 X71.074 Y35.887 E1.56572
G1 X72.13 Y36.38 E1.62387
G1 X72.181 Y36.404 E1.62668
G1 X72.586 Y36.601 E1.64915
G1 X75.041 Y37.711 E1.78357
G1 X77.602 Y38.784 E1.9221
G1 X79.922 Y39.68 E2.04617
G1 X80.85 Y40.026 E2.09558
G1 X81.286 Y40.223 E2.11945
G1 X81.526 Y40.351 E2.13302
G1 X81.631 Y40.409 E2.13901
G1 X81.898 Y40.563 E2.15439
G1 X82.317 Y40.846 E2.17961
G1 X82.644 Y41.102 E2.20033
G1 X84.861 Y42.792 E2.33941
G1 X87.046 Y44.36 E2.47358
G1 X89.346 Y45.915 E2.61209
G1 X91.607 Y47.354 E2.7458
G1 X93.963 Y48.759 E2.88266
G1 X96.43 Y50.138 E3.02366
G1 X96.687 Y50.277 E3.03824
G1 X97.139 Y50.566 E3.06501
G1 X97.592 Y50.969 E3.09525
G1 X97.933 Y51.329 E3.11999
G1 X98.041 Y51.449 E3.12805
G1 X98.453 Y51.925 E3.15946
G1 X98.762 Y52.339 E3.18523
G1 X99.17 Y52.976 E3.22297
G1 X99.234 Y53.079 E3.22902
G1 X99.461 Y53.461 E3.25119
G1 X99.601 Y53.721 E3.26592
G1 X99.891 Y54.314 E3.29885
G1 X101.149 Y56.814 E3.43848
G1 X102.42 Y59.173 E3.57217
G1 X103.798 Y61.563 E3.7098
G1 X105.224 Y63.884 E3.84571
G1 X106.714 Y66.163 E3.98155
G1 X108.271 Y68.4 E4.11753
G1 X109.901 Y70.612 E4.25461
G1 X111.558 Y72.728 E4.38869
G1 X113.303 Y74.832 E4.52507
G1 X115.113 Y76.891 E4.66184
G1 X116.97 Y78.889 E4.79793
G1 X119.504 Y81.453 E4.97777
G1 X119.851 Y81.861 E5.0045
G1 X120.134 Y82.317 E5.03127
G1 X120.346 Y82.809 E5.058
G1 X120.483 Y83.328 E5.08478
G1 X120.542 Y83.918 E5.11436
G1 X120.552 Y84.476 E5.1422
G1 X120.553 Y84.541 E5.14545
G1 X120.553 Y120.08 E6.9185
G1 X120.543 Y120.785 E6.95367
G1 X120.495 Y121.319 E6.98042
G1 X120.369 Y121.84 E7.00716
G1 X120.166 Y122.337 E7.03395
G1 X119.892 Y122.798 E7.0607
G1 X119.544 Y123.223 E7.08811
G1 X119.432 Y123.34 E7.09619
G1 X119.033 Y123.699 E7.12296
G1 X118.585 Y123.995 E7.14975
G1 X118.099 Y124.22 E7.17647
G1 X117.584 Y124.371 E7.20325
G1 X116.896 Y124.45 E7.2378
G1 X116.339 Y124.46 E7.26559
G1 X116.274 Y124.461 E7.26883
G1 X104.138 Y124.461 E7.8743
G1 X102.6 Y124.439 E7.95104
G1 X99.883 Y124.439 E8.08659
G1 X99.586 Y124.447 E8.10141
G1 X99.528 Y124.448 E8.10431
G1 X98.313 Y124.461 E8.16493
G1 X86.113 Y124.461 E8.77359
G1 X85.415 Y124.451 E8.80842
G1 X85.128 Y124.435 E8.82276
G1 X84.927 Y124.416 E8.83283
G1 X84.859 Y124.409 E8.83624
G1 X82.561 Y124.148 E8.95163
G1 X79.834 Y123.915 E9.08817
G1 X77.144 Y123.761 E9.2226
G1 X74.378 Y123.682 E9.36065
G1 X71.652 Y123.68 E9.49665
G1 X70.149 Y123.713 E9.57165
G1 X69.32 Y123.737 E9.61303
G1 X69.215 Y123.739 E9.61827
G1 X55.391 Y123.739 E10.30795
G1 X54.69 Y123.729 E10.34293
G1 X54.155 Y123.681 E10.36973
G1 X53.634 Y123.555 E10.39647
G1 X53.138 Y123.352 E10.4232
G1 X52.677 Y123.078 E10.44996
G1 X52.261 Y122.739 E10.47673
G1 X51.901 Y122.342 E10.50347
G1 X51.602 Y121.892 E10.53042
G1 X51.488 Y121.689 E10.54204
G1 X50.12 Y119.324 E10.67835
G1 X48.69 Y117.006 E10.81423
G1 X47.196 Y114.73 E10.95006
G1 X45.618 Y112.47 E11.08757
G1 X44.005 Y110.292 E11.22279
G1 X42.337 Y108.167 E11.35756
G1 X41.423 Y107.069 E11.42884
G1 X41.392 Y107.031 E11.43129
G1 X40.764 Y106.255 E11.48109
G1 X40.699 Y106.172 E11.48635
G1 X40.513 Y105.928 E11.50166
G1 X40.196 Y105.433 E11.53098
G1 X40.057 Y105.171 E11.54578
G1 X40 Y105.059 E11.55205
G1 X39.873 Y104.798 E11.56653
G1 X39.652 Y104.225 E11.59717
G1 X39.561 Y103.911 E11.61348
G1 X39.54 Y103.836 E11.61737
G1 X39.475 Y103.592 E11.62996
G1 X39.371 Y103.015 E11.65921
G1 X39.35 Y102.8 E11.66999
G1 X39.341 Y102.684 E11.6758
G1 X39.316 Y102.3 E11.69499
G1 X39.313 Y101.882 E11.71585
G1 X39.36 Y100.956 E11.76211
G1 X39.461 Y98.171 E11.90114
G1 X39.484 Y95.431 E12.03785
G1 X39.43 Y92.737 E12.17228
G1 X39.312 Y90.242 E12.29689
G1 X39.329 Y89.686 E12.32464
G1 X39.363 Y89.371 E12.34045
G1 X39.375 Y89.269 E12.34558
G1 X39.548 Y88.004 E12.40927
G1 X39.556 Y87.952 E12.4119
G1 X39.659 Y87.275 E12.44606
G1 X39.992 Y84.562 E12.58243
G1 X40.247 Y81.85 E12.71833
G1 X40.427 Y79.117 E12.85498
G1 X40.528 Y76.426 E12.98932
G1 X40.554 Y73.659 E13.12738
G1 X40.502 Y70.966 E13.26176
G1 X40.373 Y68.235 E13.39816
G1 X40.164 Y65.481 E13.53595
G1 X39.884 Y62.807 E13.67009
G1 X39.561 Y60.353 E13.79357
G1 X39.39 Y59.173 E13.85306
G1 X39.37 Y59.003 E13.8616
G1 X39.35 Y58.796 E13.87197
G1 X39.341 Y58.683 E13.87763
G1 X39.316 Y58.298 E13.89688
G1 X39.313 Y57.881 E13.91768
G1 X39.36 Y56.956 E13.96389
G1 X39.461 Y54.171 E14.10293
G1 X39.484 Y51.431 E14.23963
G1 X39.43 Y48.737 E14.37406
G1 X39.312 Y46.242 E14.49868
G1 X39.329 Y45.686 E14.52643
G1 X39.363 Y45.371 E14.54223
G1 X39.375 Y45.272 E14.54721
G1 X39.411 Y45.007 E14.56055
G1 X39.546 Y44.405 E14.59133
G1 X39.648 Y44.083 E14.60818
G1 X39.681 Y43.983 E14.61344
G1 X39.762 Y43.751 E14.6257
G1 X39.979 Y43.254 E14.65275
G1 X40.114 Y42.999 E14.66715
G1 X40.197 Y42.851 E14.67561
G1 X40.346 Y42.599 E14.69022
G1 X40.653 Y42.159 E14.71699
G1 X40.832 Y41.939 E14.73114
G1 X40.926 Y41.827 E14.73843
G1 X41.131 Y41.595 E14.75388
G0 F3600 X41.431 Y41.86
G1 F1500 X41.831 Y41.479 E14.78144
G1 X42.105 Y41.26 E14.79894
G1 X42.181 Y41.202 E14.80371
G1 X42.382 Y41.051 E14.81625
G1 X42.827 Y40.77 E14.8425
G1 X43.071 Y40.643 E14.85623
G1 X43.168 Y40.595 E14.86163
G1 X43.44 Y40.465 E14.87667
G1 X43.694 Y40.357 E14.89044
G1 X45.085 Y39.834 E14.96458
G1 X47.69 Y38.807 E15.10428
G1 X50.184 Y37.74 E15.23961
G1 X53.229 Y36.324 E15.40715
G1 X53.32 Y36.28 E15.41219
G1 X53.791 Y36.097 E15.4374
G1 X54.285 Y35.99 E15.46262
G1 X54.643 Y35.963 E15.48053
G1 X55.74 Y35.94 E15.53527
G1 X55.807 Y35.939 E15.53862
G1 X68.899 Y35.939 E16.19178
G1 X69.597 Y35.949 E16.22661
G1 X70.1 Y35.996 E16.25181
G1 X70.59 Y36.122 E16.27705
G1 X70.905 Y36.249 E16.294
G1 X71.961 Y36.742 E16.35214
G1 X72.006 Y36.764 E16.35464
G1 X72.395 Y36.953 E16.37621
G1 X74.9 Y38.086 E16.51338
G1 X77.44 Y39.15 E16.65077
G1 X79.817 Y40.068 E16.77789
G1 X80.71 Y40.401 E16.82544
G1 X81.098 Y40.575 E16.84666
G1 X81.338 Y40.703 E16.86023
G1 X81.431 Y40.755 E16.86554
G1 X81.698 Y40.909 E16.88092
G1 X82.071 Y41.161 E16.90338
G1 X82.402 Y41.42 E16.92435
G1 X84.609 Y43.102 E17.06279
G1 X86.851 Y44.711 E17.20046
G1 X89.086 Y46.223 E17.33509
G1 X91.434 Y47.717 E17.47393
G1 X93.769 Y49.11 E17.60958
G1 X96.217 Y50.478 E17.74949
G1 X96.497 Y50.629 E17.76536
G1 X96.922 Y50.903 E17.79059
G1 X97.301 Y51.244 E17.81602
G1 X97.642 Y51.604 E17.84076
G1 X97.739 Y51.711 E17.84797
G1 X98.151 Y52.187 E17.87938
G1 X98.426 Y52.555 E17.9023
G1 X98.834 Y53.192 E17.94004
G1 X98.89 Y53.283 E17.94537
G1 X99.117 Y53.665 E17.96754
G1 X99.242 Y53.896 E17.98064
G1 X99.551 Y54.529 E18.01578
G1 X100.779 Y56.97 E18.15211
G1 X102.089 Y59.401 E18.28988
G1 X103.444 Y61.751 E18.42521
G1 X104.892 Y64.107 E18.56318
G1 X106.368 Y66.365 E18.69776
G1 X107.949 Y68.637 E18.83586
G1 X109.569 Y70.833 E18.972
G1 X111.269 Y73.005 E19.10961
G1 X113.011 Y75.105 E19.24573
G1 X114.802 Y77.144 E19.38113
G1 X116.691 Y79.176 E19.51954
G1 X119.219 Y81.734 E19.69897
G1 X119.545 Y82.12 E19.72418
G1 X119.806 Y82.553 E19.7494
G1 X119.995 Y83.022 E19.77463
G1 X120.109 Y83.515 E19.79987
G1 X120.142 Y83.926 E19.82044
G1 X120.152 Y84.484 E19.84829
G1 X120.153 Y84.541 E19.85113
G1 X120.153 Y120.074 E21.62388
G1 X120.143 Y120.779 E21.65905
G1 X120.096 Y121.283 E21.68431
G1 X119.97 Y121.772 E21.7095
G1 X119.768 Y122.236 E21.73475
G1 X119.497 Y122.662 E21.75994
G1 X119.255 Y122.947 E21.77859
G1 X119.143 Y123.064 E21.78667
G1 X118.765 Y123.4 E21.8119
G1 X118.34 Y123.673 E21.8371
G1 X117.876 Y123.875 E21.86235
G1 X117.387 Y124.002 E21.88756
G1 X116.888 Y124.05 E21.91257
G1 X116.331 Y124.06 E21.94036
G1 X116.274 Y124.061 E21.94321
G1 X104.143 Y124.061 E22.54842
G1 X102.605 Y124.039 E22.62516
G1 X99.872 Y124.039 E22.76151
G1 X99.575 Y124.047 E22.77634
G1 X99.523 Y124.048 E22.77893
G1 X98.308 Y124.061 E22.83955
G1 X86.119 Y124.061 E23.44766
G1 X85.421 Y124.051 E23.48249
G1 X85.166 Y124.037 E23.49523
G1 X84.965 Y124.018 E23.5053
G1 X84.905 Y124.012 E23.50831
G1 X82.573 Y123.747 E23.6254
G1 X79.89 Y123.517 E23.75975
G1 X77.144 Y123.361 E23.89697
G1 X74.39 Y123.282 E24.03442
G1 X71.644 Y123.28 E24.17142
G1 X70.164 Y123.312 E24.24528
G1 X70.164 Y123.313 E24.24533
G1 X69.309 Y123.338 E24.288
G1 X69.215 Y123.339 E24.29269
G1 X55.396 Y123.339 E24.98212
G1 X54.695 Y123.329 E25.0171
G1 X54.192 Y123.282 E25.0423
G1 X53.702 Y123.156 E25.06755
G1 X53.239 Y122.954 E25.09275
G1 X52.812 Y122.682 E25.11801
G1 X52.434 Y122.347 E25.1432
G1 X52.114 Y121.956 E25.16841
G1 X51.951 Y121.696 E25.18372
G1 X51.837 Y121.493 E25.19534
G1 X50.458 Y119.109 E25.33274
G1 X49.032 Y116.799 E25.46818
G1 X47.531 Y114.511 E25.6047
G1 X45.952 Y112.249 E25.74232
G1 X44.325 Y110.052 E25.87872
G1 X42.64 Y107.906 E26.01484
G1 X41.731 Y106.814 E26.08573
G1 X41.703 Y106.779 E26.08796
G1 X41.075 Y106.003 E26.13777
G1 X41.017 Y105.93 E26.14242
G1 X40.831 Y105.686 E26.15772
G1 X40.549 Y105.246 E26.1838
G1 X40.41 Y104.984 E26.19859
G1 X40.36 Y104.884 E26.20417
G1 X40.233 Y104.623 E26.21865
G1 X40.036 Y104.114 E26.24588
G1 X39.945 Y103.8 E26.26219
G1 X39.927 Y103.733 E26.26565
G1 X39.862 Y103.489 E26.27825
G1 X39.769 Y102.976 E26.30426
G1 X39.748 Y102.761 E26.31504
G1 X39.74 Y102.658 E26.32019
G1 X39.715 Y102.274 E26.33939
G1 X39.712 Y101.903 E26.3579
G1 X39.762 Y100.924 E26.40681
G1 X39.861 Y98.189 E26.54335
G1 X39.884 Y95.431 E26.68095
G1 X39.83 Y92.71 E26.81673
G1 X39.712 Y90.223 E26.94094
G1 X39.726 Y89.729 E26.9656
G1 X39.76 Y89.414 E26.98141
G1 X39.772 Y89.323 E26.98599
G1 X39.945 Y88.058 E27.04968
G1 X39.951 Y88.012 E27.052
G1 X40.057 Y87.313 E27.08727
G1 X40.388 Y84.615 E27.22288
G1 X40.646 Y81.875 E27.36019
G1 X40.827 Y79.126 E27.49763
G1 X40.928 Y76.409 E27.63328
G1 X40.954 Y73.655 E27.77068
G1 X40.902 Y70.939 E27.90621
G1 X40.773 Y68.222 E28.04191
G1 X40.565 Y65.481 E28.17906
G1 X40.28 Y62.75 E28.31605
G1 X39.951 Y60.255 E28.4416
G1 X39.786 Y59.116 E28.49902
G1 X39.768 Y58.965 E28.5066
G1 X39.748 Y58.758 E28.51698
G1 X39.74 Y58.657 E28.52203
G1 X39.715 Y58.272 E28.54128
G1 X39.712 Y57.902 E28.55974
G1 X39.762 Y56.924 E28.6086
G1 X39.861 Y54.189 E28.74514
G1 X39.884 Y51.431 E28.88274
G1 X39.83 Y48.71 E29.01852
G1 X39.712 Y46.223 E29.14273
G1 X39.726 Y45.729 E29.16739
G1 X39.76 Y45.414 E29.1832
G1 X39.771 Y45.326 E29.18762
G1 X39.807 Y45.061 E29.20096
G1 X39.927 Y44.526 E29.22832
G1 X40.029 Y44.204 E29.24517
G1 X40.059 Y44.115 E29.24985
G1 X40.14 Y43.883 E29.26211
G1 X40.333 Y43.441 E29.28618
G1 X40.468 Y43.186 E29.30057
G1 X40.541 Y43.054 E29.3081
G1 X40.69 Y42.802 E29.3227
G1 X40.963 Y42.411 E29.34649
G1 X41.142 Y42.191 E29.36064
G1 X41.226 Y42.092 E29.36712
G1 X41.431 Y41.86 E29.38257
G1 F1500 E24.38257
G1 F600 Z1.3
G0 F3600 X89.868 Y58.015 Z1.3
;TYPE:SUPPORT
G1 F600 Z0.3
G1 F1500 E29.38257
G1 X89.926 Y57.864 E29.39064
G1 X90.032 Y57.714 E29.3998
G1 X90.127 Y57.631 E29.40609
G1 X90.551 Y57.482 E29.42852
G1 X90.663 Y57.485 E29.43411
G1 X90.838 Y57.535 E29.44319
G1 X90.998 Y57.626 E29.45237
G1 X91.117 Y57.741 E29.46062
G1 X91.214 Y57.895 E29.4697
G1 X91.268 Y58.062 E29.47846
G1 X91.278 Y58.238 E29.48726
G1 X91.246 Y58.414 E29.49618
G1 X91.176 Y58.564 E29.50444
G1 X91.059 Y58.712 E29.51385
G1 X91.033 Y58.732 E29.51549
G1 X89.863 Y58.057 E29.58288
G1 X89.868 Y58.015 E29.58499
G0 F3600 X90.678 Y58.342
G1 F1500 X90.678 Y57.656 E29.61921
G1 F1500 E24.61921
G1 F600 Z1.3
G0 F3600 X90.529 Y70.792 Z1.3
G1 F600 Z0.3
G1 F1500 E29.61921
G1 X90.641 Y70.795 E29.6248
G1 X90.817 Y70.845 E29.63393
G1 X90.974 Y70.935 E29.64296
G1 X91.094 Y71.049 E29.65122
G1 X91.192 Y71.205 E29.66041
G1 X91.243 Y71.371 E29.66907
G1 X91.255 Y71.555 E29.67827
G1 X91.225 Y71.72 E29.68664
G1 X91.152 Y71.878 E29.69532
G1 X91.036 Y72.024 E29.70462
G1 X91.01 Y72.044 E29.70626
G1 X89.841 Y71.367 E29.77366
G1 X89.846 Y71.325 E29.77577
G1 X89.905 Y71.171 E29.78399
G1 X90.008 Y71.025 E29.79291
G1 X90.104 Y70.941 E29.79927
G1 X90.529 Y70.792 E29.82174
G0 F3600 X90.678 Y70.972
G1 F1500 X90.678 Y71.667 E29.85641
G1 F1500 E24.85641
G1 F600 Z1.3
G0 F3600 X85.544 Y84.061 Z1.3
G1 F600 Z0.3
G1 F1500 E29.85641
G1 X98.753 Y84.061 E30.51541
G1 X98.753 Y116.035 E32.1106
G1 X98.278 Y115.56 E32.14412
G1 X86.016 Y115.561 E32.75587
G1 X85.545 Y116.032 E32.7891
G1 X85.544 Y84.061 E34.38414
G1 F1500 E29.38414
G1 F600 Z1.3
G0 F3600 X85.543 Y119.326 Z1.3
G1 F600 Z0.3
G1 F1500 E34.38414
G1 X86.016 Y119.799 E34.41751
G1 X98.278 Y119.799 E35.02927
G1 X98.753 Y119.324 E35.06278
G1 X98.753 Y120.661 E35.12949
G1 X85.541 Y120.661 E35.78863
G1 X85.543 Y119.326 E35.85524
G0 F3600 X85.701 Y120.015
G1 F1500 X98.592 Y120.015 E36.49837
G1 F1500 E31.49837
G1 F600 Z1.3
G0 F3600 X96.012 Y119.959 Z1.3
G1 F600 Z0.3
G1 F1500 E36.49837
G1 X96.012 Y120.501 E36.52541
G1 F1500 E31.52541
G1 F600 Z1.3
G0 F3600 X93.345 Y120.501 Z1.3
G1 F600 Z0.3
G1 F1500 E36.52541
G1 X93.345 Y119.959 E36.55245
G1 F1500 E31.55245
G1 F600 Z1.3
G0 F3600 X90.678 Y119.959 Z1.3
G1 F600 Z0.3
G1 F1500 E36.55245
G1 X90.678 Y120.501 E36.57949
G1 F1500 E31.57949
G1 F600 Z1.3
G0 F3600 X88.011 Y120.501 Z1.3
G1 F600 Z0.3
G1 F1500 E36.57949
G1 X88.011 Y119.959 E36.60654
G1 F1500 E31.60654
G1 F600 Z1.3
G0 F3600 X88.011 Y115.401 Z1.3
G1 F600 Z0.3
G1 F1500 E36.60654
G1 X88.011 Y84.221 E38.16211
G1 F1500 E33.16211
G1 F600 Z1.3
G0 F3600 X85.704 Y85.344 Z1.3
G1 F600 Z0.3
G1 F1500 E38.16211
G1 X98.593 Y85.344 E38.80515
G1 F1500 E33.80515
G1 F600 Z1.3
G0 F3600 X98.593 Y88.011 Z1.3
G1 F600 Z0.3
G1 F1500 E38.80515
G1 X85.704 Y88.011 E39.44818
G1 F1500 E34.44818
G1 F600 Z1.3
G0 F3600 X85.704 Y90.678 Z1.3
G1 F600 Z0.3
G1 F1500 E39.44818
G1 X98.593 Y90.678 E40.09122
G1 F1500 E35.09122
G1 F600 Z1.3
G0 F3600 X98.593 Y93.345 Z1.3
G1 F600 Z0.3
G1 F1500 E40.09122
G1 X85.704 Y93.345 E40.73425
G1 F1500 E35.73425
G1 F600 Z1.3
G0 F3600 X85.704 Y96.012 Z1.3
G1 F600 Z0.3
G1 F1500 E40.73425
G1 X98.593 Y96.012 E41.37729
G1 F1500 E36.37729
G1 F600 Z1.3
G0 F3600 X98.593 Y98.679 Z1.3
G1 F600 Z0.3
G1 F1500 E41.37729
G1 X85.704 Y98.679 E42.02032
G1 F1500 E37.02032
G1 F600 Z1.3
G0 F3600 X85.704 Y101.346 Z1.3
G1 F600 Z0.3
G1 F1500 E42.02032
G1 X98.593 Y101.346 E42.66336
G1 F1500 E37.66336
G1 F600 Z1.3
G0 F3600 X98.593 Y104.013 Z1.3
G1 F600 Z0.3
G1 F1500 E42.66336
G1 X85.704 Y104.013 E43.30639
G1 F1500 E38.30639
G1 F600 Z1.3
G0 F3600 X85.704 Y106.68 Z1.3
G1 F600 Z0.3
G1 F1500 E43.30639
G1 X98.593 Y106.68 E43.94942
G1 F1500 E38.94942
G1 F600 Z1.3
G0 F3600 X98.593 Y109.347 Z1.3
G1 F600 Z0.3
G1 F1500 E43.94942
G1 X85.704 Y109.347 E44.59246
G1 F1500 E39.59246
G1 F600 Z1.3
G0 F3600 X85.704 Y112.014 Z1.3
G1 F600 Z0.3
G1 F1500 E44.59246
G1 X98.593 Y112.014 E45.23549
G1 F1500 E40.23549
G1 F600 Z1.3
G0 F3600 X98.593 Y114.681 Z1.3
G1 F600 Z0.3
G1 F1500 E45.23549
G1 X85.704 Y114.681 E45.87853
G1 F1500 E40.87853
G1 F600 Z1.3
G0 F3600 X90.678 Y115.401 Z1.3
G1 F600 Z0.3
G1 F1500 E45.87853
G1 X90.678 Y84.221 E47.43411
G1 F1500 E42.43411
G1 F600 Z1.3
G0 F3600 X93.345 Y84.221 Z1.3
G1 F600 Z0.3
G1 F1500 E47.43411
G1 X93.345 Y115.401 E48.98968
G1 F1500 E43.98968
G1 F600 Z1.3
G0 F3600 X96.012 Y115.401 Z1.3
G1 F600 Z0.3
G1 F1500 E48.98968
G1 X96.012 Y84.221 E50.54526
G1 F1500 E45.54526
G1 F600 Z1.3
G0 F3600 X103.544 Y84.061 Z1.3
G1 F600 Z0.3
