;FLAVOR:Marlin
;TIME:2327
;Filament used: 2.5157m
;Layer height: 0.3
;MINX:48.044
;MINY:48.035
;MINZ:0.3
;MAXX:111.968
;MAXY:111.956
;MAXZ:24.9
;Generated with Cura_SteamEngine 4.4.0
M104 S228
M105
M109 S228
M82 ;absolute extrusion mode
G28 ;Home
G1 Z15.0 F6000 ;Move the platform down 15mm
;Prime the extruder
G92 E0
G1 F200 E3
G92 E0
G92 E0
G92 E0
G1 F1500 E-6.5
;LAYER_COUNT:83
;LAYER:0
M107
G1 F600 Z1.3
G0 F3600 X57.299 Y57.501 Z1.3
;TYPE:SKIRT
G1 F600 Z0.3
G1 F1500 E0
G1 X57.365 Y57.436 E0.00462
G1 X57.53 Y57.277 E0.01605
G1 X57.796 Y57.044 E0.0337
G1 X60.023 Y55.284 E0.17531
G1 X62.078 Y53.567 E0.30891
G1 X62.386 Y53.336 E0.32812
G1 X62.733 Y53.104 E0.34894
G1 X62.823 Y53.046 E0.35428
G1 X63.326 Y52.731 E0.38389
G1 X63.421 Y52.674 E0.38942
G1 X63.676 Y52.525 E0.40416
G1 X64.037 Y52.34 E0.42439
G1 X64.879 Y51.968 E0.47032
G1 X64.925 Y51.948 E0.47282
G1 X65.865 Y51.548 E0.52379
G1 X68.327 Y50.419 E0.65892
G1 X68.952 Y50.113 E0.69363
G1 X69.006 Y50.087 E0.69662
G1 X69.513 Y49.849 E0.72457
G1 X69.8 Y49.73 E0.74007
G1 X70.175 Y49.592 E0.76
G1 X70.284 Y49.553 E0.76578
G1 X70.513 Y49.477 E0.77782
G1 X70.599 Y49.45 E0.78231
G1 X70.921 Y49.352 E0.7991
G1 X71.023 Y49.323 E0.80439
G1 X71.39 Y49.223 E0.82337
G1 X71.787 Y49.138 E0.84363
G1 X72.772 Y48.986 E0.89335
G1 X72.819 Y48.979 E0.89572
G1 X73.617 Y48.867 E0.93592
G1 X76.305 Y48.41 E1.07195
G1 X77.199 Y48.235 E1.1174
G1 X77.263 Y48.223 E1.12065
G1 X77.716 Y48.143 E1.1436
G1 X78.101 Y48.096 E1.16295
G1 X78.399 Y48.076 E1.17785
G1 X78.52 Y48.07 E1.1839
G1 X79.39 Y48.041 E1.22732
G1 X79.479 Y48.039 E1.23177
G1 X79.944 Y48.035 E1.25497
G1 X80.02 Y48.035 E1.25876
G1 X80.575 Y48.042 E1.28645
G1 X80.677 Y48.045 E1.29154
G1 X81.044 Y48.06 E1.30986
G1 X81.341 Y48.084 E1.32473
G1 X82.339 Y48.208 E1.3749
G1 X82.393 Y48.216 E1.37763
G1 X82.929 Y48.291 E1.40463
G1 X86.107 Y48.644 E1.56415
G1 X86.4 Y48.689 E1.57894
G1 X86.707 Y48.749 E1.59455
G1 X86.825 Y48.774 E1.60057
G1 X87.67 Y48.969 E1.64383
G1 X87.766 Y48.993 E1.64877
G1 X88.074 Y49.073 E1.66465
G1 X88.15 Y49.093 E1.66857
G1 X88.482 Y49.187 E1.68578
G1 X88.831 Y49.306 E1.70418
G1 X91.51 Y50.371 E1.84801
G1 X93.1 Y50.961 E1.93262
G1 X93.945 Y51.266 E1.97744
G1 X94.32 Y51.426 E1.99778
G1 X94.623 Y51.576 E2.01464
G1 X94.717 Y51.624 E2.01991
G1 X95.249 Y51.907 E2.04997
G1 X95.338 Y51.956 E2.05504
G1 X95.658 Y52.138 E2.07341
G1 X95.995 Y52.355 E2.09341
G1 X96.651 Y52.832 E2.13387
G1 X96.697 Y52.866 E2.13673
G1 X97.573 Y53.524 E2.19138
G1 X99.784 Y55.092 E2.32662
G1 X100.609 Y55.648 E2.37625
G1 X100.659 Y55.683 E2.37929
G1 X100.918 Y55.864 E2.39506
G1 X101.295 Y56.167 E2.41919
G1 X102.068 Y56.879 E2.47162
G1 X102.16 Y56.967 E2.47797
G1 X102.338 Y57.143 E2.49046
G1 X102.612 Y57.446 E2.51084
G1 X103.213 Y58.193 E2.55867
G1 X103.247 Y58.236 E2.56141
G1 X103.678 Y58.788 E2.59635
G1 X105.418 Y60.897 E2.73276
G1 X106.018 Y61.586 E2.77834
G1 X106.06 Y61.634 E2.78152
G1 X106.431 Y62.075 E2.81027
G1 X106.625 Y62.329 E2.82622
G1 X106.751 Y62.509 E2.83718
G1 X106.856 Y62.666 E2.8466
G1 X107.285 Y63.353 E2.88701
G1 X107.335 Y63.437 E2.89189
G1 X107.493 Y63.706 E2.90745
G1 X107.681 Y64.072 E2.92798
G1 X108.119 Y65.062 E2.98199
G1 X108.138 Y65.106 E2.98438
G1 X108.435 Y65.802 E3.02213
G1 X109.581 Y68.294 E3.15897
G1 X109.72 Y68.576 E3.17466
G1 X109.741 Y68.621 E3.17714
G1 X110.164 Y69.511 E3.2263
G1 X110.325 Y69.908 E3.24767
G1 X110.428 Y70.214 E3.26378
G1 X110.46 Y70.314 E3.26902
G1 X110.663 Y70.981 E3.3038
G1 X110.691 Y71.078 E3.30884
G1 X110.774 Y71.381 E3.32451
G1 X110.86 Y71.783 E3.34502
G1 X111.045 Y72.981 E3.4055
G1 X111.052 Y73.027 E3.40782
G1 X111.13 Y73.578 E3.43558
G1 X111.581 Y76.241 E3.57033
G1 X111.678 Y76.731 E3.59525
G1 X111.688 Y76.785 E3.59799
G1 X111.843 Y77.639 E3.6413
G1 X111.894 Y78.06 E3.66245
G1 X111.937 Y78.757 E3.69729
G1 X111.943 Y78.878 E3.70334
G1 X111.967 Y79.736 E3.74616
G1 X111.968 Y79.86 E3.75235
G1 X111.963 Y80.631 E3.79081
G1 X111.96 Y80.758 E3.79715
G1 X111.939 Y81.262 E3.82232
G1 X111.913 Y81.567 E3.83759
G1 X111.762 Y82.753 E3.89724
G1 X111.756 Y82.802 E3.8997
G1 X111.672 Y83.4 E3.92983
G1 X111.506 Y84.789 E3.99962
G1 X111.505 Y84.789 E3.99967
G1 X111.357 Y86.108 E4.06588
G1 X111.318 Y86.373 E4.07925
G1 X111.265 Y86.654 E4.09351
G1 X111.235 Y86.795 E4.10071
G1 X111.153 Y87.151 E4.11893
G1 X111.139 Y87.208 E4.12186
G1 X110.981 Y87.846 E4.15465
G1 X110.838 Y88.296 E4.17821
G1 X110.723 Y88.589 E4.19391
G1 X109.727 Y91.157 E4.33133
G1 X109.144 Y92.815 E4.41901
G1 X109.133 Y92.847 E4.4207
G1 X108.733 Y93.951 E4.47928
G1 X108.577 Y94.317 E4.49913
G1 X108.473 Y94.528 E4.51087
G1 X108.423 Y94.626 E4.51636
G1 X108.045 Y95.337 E4.55653
G1 X107.997 Y95.424 E4.56149
G1 X107.766 Y95.831 E4.58484
G1 X107.727 Y95.898 E4.5887
G1 X107.563 Y96.173 E4.60468
G1 X107.357 Y96.481 E4.62316
G1 X105.748 Y98.639 E4.75746
G1 X104.902 Y99.825 E4.83014
G1 X104.136 Y100.918 E4.89673
G1 X103.838 Y101.289 E4.92047
G1 X103.164 Y102.022 E4.97015
G1 X103.075 Y102.115 E4.97657
G1 X102.825 Y102.368 E4.99432
G1 X102.521 Y102.643 E5.01477
G1 X101.763 Y103.253 E5.06331
G1 X101.722 Y103.285 E5.0659
G1 X101.086 Y103.782 E5.10617
G1 X99.013 Y105.499 E5.24046
G1 X98.689 Y105.783 E5.26196
G1 X98.641 Y105.824 E5.26511
G1 X97.914 Y106.439 E5.31262
G1 X97.589 Y106.684 E5.33292
G1 X97.366 Y106.833 E5.3463
G1 X97.275 Y106.892 E5.35171
G1 X96.653 Y107.281 E5.38831
G1 X96.553 Y107.341 E5.39413
G1 X96.307 Y107.484 E5.40833
G1 X95.953 Y107.665 E5.42816
G1 X94.998 Y108.087 E5.48025
G1 X94.949 Y108.108 E5.48291
G1 X94.369 Y108.354 E5.51434
G1 X91.897 Y109.486 E5.64999
G1 X91.128 Y109.863 E5.69272
G1 X91.075 Y109.888 E5.69564
G1 X90.475 Y110.17 E5.72871
G1 X90.137 Y110.309 E5.74695
G1 X89.895 Y110.394 E5.75974
G1 X89.752 Y110.44 E5.76724
G1 X89.021 Y110.663 E5.80537
G1 X88.92 Y110.693 E5.81062
G1 X88.631 Y110.772 E5.82557
G1 X88.241 Y110.855 E5.84546
G1 X87.235 Y111.013 E5.89627
G1 X87.176 Y111.022 E5.89925
G1 X86.456 Y111.123 E5.93552
G1 X83.711 Y111.588 E6.07442
G1 X82.771 Y111.771 E6.1222
G1 X82.709 Y111.783 E6.12535
G1 X82.291 Y111.857 E6.14652
G1 X81.905 Y111.904 E6.16592
G1 X81.638 Y111.922 E6.17928
G1 X81.518 Y111.928 E6.18527
G1 X80.779 Y111.953 E6.22216
G1 X80.669 Y111.955 E6.22765
G1 X80.37 Y111.956 E6.24257
G1 X79.973 Y111.935 E6.2624
G1 X78.968 Y111.827 E6.31283
G1 X78.903 Y111.82 E6.31609
G1 X78.412 Y111.758 E6.34078
G1 X75.733 Y111.499 E6.47506
G1 X75.295 Y111.47 E6.49696
G1 X75.244 Y111.466 E6.49951
G1 X73.989 Y111.364 E6.56233
G1 X73.582 Y111.307 E6.58283
G1 X73.294 Y111.25 E6.59748
G1 X73.186 Y111.227 E6.60299
G1 X72.347 Y111.034 E6.64594
G1 X72.248 Y111.01 E6.65102
G1 X71.894 Y110.918 E6.66927
G1 X71.823 Y110.899 E6.67294
G1 X71.518 Y110.813 E6.68875
G1 X71.163 Y110.693 E6.70744
G1 X68.426 Y109.603 E6.85442
G1 X66.686 Y108.959 E6.94699
G1 X66.067 Y108.737 E6.97979
G1 X65.714 Y108.589 E6.99889
G1 X65.466 Y108.469 E7.01264
G1 X65.369 Y108.42 E7.01806
G1 X65.16 Y108.311 E7.02982
G1 X65.088 Y108.272 E7.0339
G1 X64.458 Y107.925 E7.06979
G1 X64.035 Y107.652 E7.0949
G1 X63.747 Y107.436 E7.11286
G1 X61.545 Y105.828 E7.2489
G1 X59.576 Y104.482 E7.36789
G1 X59.539 Y104.457 E7.37012
G1 X59.076 Y104.132 E7.39834
G1 X58.781 Y103.901 E7.41703
G1 X58.581 Y103.727 E7.43026
G1 X58.49 Y103.645 E7.43637
G1 X57.977 Y103.167 E7.47135
G1 X57.901 Y103.095 E7.47657
G1 X57.661 Y102.858 E7.4934
G1 X57.402 Y102.573 E7.51261
G1 X56.873 Y101.925 E7.55435
G1 X56.826 Y101.865 E7.55815
G1 X56.181 Y101.04 E7.6104
G1 X54.441 Y98.941 E7.74642
G1 X54.068 Y98.515 E7.77467
G1 X54.026 Y98.466 E7.77789
G1 X53.557 Y97.91 E7.81418
G1 X53.321 Y97.597 E7.83373
G1 X53.198 Y97.414 E7.84473
G1 X53.134 Y97.316 E7.85057
G1 X52.714 Y96.645 E7.89007
G1 X52.658 Y96.552 E7.89548
G1 X52.499 Y96.28 E7.9112
G1 X52.313 Y95.915 E7.93164
G1 X51.829 Y94.817 E7.9915
G1 X51.809 Y94.772 E7.99396
G1 X51.592 Y94.261 E8.02166
G1 X50.453 Y91.78 E8.15786
G1 X50.342 Y91.555 E8.17037
G1 X50.317 Y91.503 E8.17325
G1 X49.835 Y90.488 E8.22931
G1 X49.677 Y90.098 E8.2503
G1 X49.563 Y89.761 E8.26805
G1 X49.529 Y89.655 E8.27361
G1 X49.331 Y89.004 E8.30755
G1 X49.304 Y88.91 E8.31243
G1 X49.224 Y88.619 E8.32749
G1 X49.137 Y88.214 E8.34816
G1 X48.974 Y87.158 E8.40146
G1 X48.967 Y87.108 E8.40398
G1 X48.864 Y86.373 E8.44101
G1 X48.409 Y83.696 E8.57648
G1 X48.237 Y82.812 E8.62141
G1 X48.224 Y82.747 E8.62472
G1 X48.142 Y82.281 E8.64833
G1 X48.098 Y81.921 E8.66642
G1 X48.08 Y81.676 E8.67868
G1 X48.072 Y81.531 E8.68592
G1 X48.047 Y80.778 E8.72351
G1 X48.045 Y80.671 E8.72885
G1 X48.044 Y80.364 E8.74416
G1 X48.065 Y79.962 E8.76425
G1 X48.187 Y78.843 E8.82041
G1 X48.193 Y78.792 E8.82297
G1 X48.249 Y78.337 E8.84584
G1 X48.51 Y75.609 E8.98256
G1 X48.535 Y75.234 E9.00131
G1 X48.539 Y75.186 E9.00371
G1 X48.636 Y73.986 E9.06378
G1 X48.692 Y73.578 E9.08432
G1 X48.742 Y73.325 E9.09719
G1 X48.767 Y73.211 E9.10301
G1 X48.921 Y72.546 E9.13707
G1 X48.952 Y72.42 E9.14354
G1 X49.347 Y70.956 E9.21919
G1 X49.383 Y70.834 E9.22554
G1 X49.481 Y70.516 E9.24214
G1 X49.582 Y70.231 E9.25722
G1 X50.109 Y68.923 E9.32758
G1 X50.119 Y68.898 E9.32892
G1 X50.829 Y67.173 E9.42199
G1 X51.279 Y66.02 E9.48374
G1 X51.405 Y65.734 E9.49933
G1 X51.669 Y65.2 E9.52905
G1 X51.72 Y65.101 E9.5346
G1 X51.864 Y64.831 E9.54987
G1 X51.907 Y64.752 E9.55436
G1 X52.113 Y64.388 E9.57522
G1 X52.33 Y64.05 E9.59526
G1 X52.765 Y63.449 E9.63228
G1 X52.8 Y63.401 E9.63524
G1 X53.586 Y62.353 E9.7006
G1 X55.155 Y60.129 E9.83639
G1 X55.836 Y59.124 E9.89695
G1 X56.161 Y58.712 E9.92313
G1 X56.858 Y57.951 E9.97462
G1 X56.949 Y57.856 E9.98118
G1 X57.299 Y57.501 E10.00605
G0 F3600 X57.584 Y57.781
G1 F1500 X57.643 Y57.724 E10.01014
G1 X57.808 Y57.565 E10.02158
G1 X58.044 Y57.358 E10.03724
G1 X60.283 Y55.589 E10.1796
G1 X62.335 Y53.874 E10.31302
G1 X62.608 Y53.669 E10.33005
G1 X62.955 Y53.437 E10.35088
G1 X63.036 Y53.385 E10.35568
G1 X63.539 Y53.07 E10.38529
G1 X63.623 Y53.019 E10.39019
G1 X63.878 Y52.87 E10.40493
G1 X64.199 Y52.706 E10.42291
G1 X65.041 Y52.334 E10.46884
G1 X65.082 Y52.316 E10.47107
G1 X66.01 Y51.921 E10.52139
G1 X68.539 Y50.762 E10.66018
G1 X69.128 Y50.473 E10.69291
G1 X69.176 Y50.449 E10.69559
G1 X69.683 Y50.211 E10.72353
G1 X69.938 Y50.105 E10.73731
G1 X70.313 Y49.967 E10.75724
G1 X70.41 Y49.933 E10.76237
G1 X70.639 Y49.857 E10.77441
G1 X70.715 Y49.833 E10.77839
G1 X71.037 Y49.735 E10.79518
G1 X71.128 Y49.709 E10.7999
G1 X71.495 Y49.609 E10.81888
G1 X71.848 Y49.533 E10.83689
G1 X72.833 Y49.381 E10.88661
G1 X72.875 Y49.375 E10.88873
G1 X73.668 Y49.263 E10.92869
G1 X76.37 Y48.804 E11.06542
G1 X77.276 Y48.627 E11.11148
G1 X77.332 Y48.617 E11.11431
G1 X77.785 Y48.537 E11.13726
G1 X78.128 Y48.495 E11.1545
G1 X78.426 Y48.475 E11.16941
G1 X78.533 Y48.47 E11.17475
G1 X79.403 Y48.441 E11.21818
G1 X79.482 Y48.439 E11.22212
G1 X79.947 Y48.435 E11.24532
G1 X80.015 Y48.435 E11.24871
G1 X80.57 Y48.442 E11.2764
G1 X80.661 Y48.445 E11.28095
G1 X81.028 Y48.46 E11.29927
G1 X81.292 Y48.481 E11.31248
G1 X82.29 Y48.605 E11.36266
G1 X82.337 Y48.612 E11.36503
G1 X82.9 Y48.691 E11.39339
G1 X86.062 Y49.042 E11.55211
G1 X86.323 Y49.081 E11.56528
G1 X86.63 Y49.141 E11.58089
G1 X86.736 Y49.164 E11.5863
G1 X87.581 Y49.359 E11.62956
G1 X87.665 Y49.38 E11.63388
G1 X87.973 Y49.46 E11.64976
G1 X88.041 Y49.478 E11.65327
G1 X88.373 Y49.572 E11.67048
G1 X88.683 Y49.677 E11.68681
G1 X91.387 Y50.752 E11.83198
G1 X92.964 Y51.337 E11.9159
G1 X93.809 Y51.642 E11.96072
G1 X94.143 Y51.784 E11.97883
G1 X94.446 Y51.934 E11.99569
G1 X94.529 Y51.977 E12.00036
G1 X95.061 Y52.26 E12.03042
G1 X95.14 Y52.303 E12.03491
G1 X95.46 Y52.485 E12.05327
G1 X95.76 Y52.679 E12.0711
G1 X96.416 Y53.156 E12.11156
G1 X96.456 Y53.186 E12.11406
G1 X97.33 Y53.843 E12.16861
G1 X99.561 Y55.425 E12.30506
G1 X100.385 Y55.98 E12.35462
G1 X100.43 Y56.011 E12.35735
G1 X100.689 Y56.192 E12.37311
G1 X101.024 Y56.461 E12.39455
G1 X101.797 Y57.173 E12.44698
G1 X101.879 Y57.252 E12.45266
G1 X102.057 Y57.428 E12.46515
G1 X102.3 Y57.697 E12.48323
G1 X102.901 Y58.444 E12.53106
G1 X102.931 Y58.482 E12.53348
G1 X103.369 Y59.044 E12.56903
G1 X105.091 Y61.131 E12.70402
G1 X105.717 Y61.849 E12.75154
G1 X105.754 Y61.892 E12.75437
G1 X106.125 Y62.333 E12.78312
G1 X106.298 Y62.558 E12.79728
G1 X106.424 Y62.738 E12.80824
G1 X106.516 Y62.878 E12.8166
G1 X106.945 Y63.565 E12.85701
G1 X106.99 Y63.639 E12.86133
G1 X107.148 Y63.908 E12.8769
G1 X107.315 Y64.234 E12.89517
G1 X107.753 Y65.224 E12.94918
G1 X107.77 Y65.263 E12.9513
G1 X108.075 Y65.977 E12.99004
G1 X109.216 Y68.458 E13.12628
G1 X109.361 Y68.753 E13.14268
G1 X109.38 Y68.792 E13.14484
G1 X109.803 Y69.682 E13.194
G1 X109.946 Y70.035 E13.213
G1 X110.049 Y70.341 E13.22911
G1 X110.077 Y70.43 E13.23377
G1 X110.28 Y71.097 E13.26855
G1 X110.305 Y71.184 E13.27307
G1 X110.388 Y71.487 E13.28874
G1 X110.465 Y71.844 E13.30696
G1 X110.65 Y73.042 E13.36744
G1 X110.656 Y73.083 E13.3695
G1 X110.734 Y73.638 E13.39747
G1 X111.194 Y76.35 E13.5347
G1 X111.285 Y76.809 E13.55805
G1 X111.295 Y76.857 E13.56049
G1 X111.45 Y77.711 E13.60379
G1 X111.495 Y78.085 E13.62259
G1 X111.538 Y78.782 E13.65743
G1 X111.543 Y78.89 E13.66282
G1 X111.567 Y79.748 E13.70564
G1 X111.568 Y79.858 E13.71113
G1 X111.563 Y80.629 E13.7496
G1 X111.56 Y80.741 E13.75519
G1 X111.539 Y81.245 E13.78035
G1 X111.516 Y81.516 E13.79392
G1 X111.365 Y82.702 E13.85357
G1 X111.36 Y82.746 E13.85578
G1 X111.276 Y83.341 E13.88576
G1 X111.109 Y84.742 E13.95615
G1 X110.96 Y86.064 E14.02252
G1 X110.925 Y86.299 E14.03438
G1 X110.872 Y86.58 E14.04864
G1 X110.845 Y86.705 E14.05502
G1 X110.763 Y87.061 E14.07325
G1 X110.751 Y87.112 E14.07586
G1 X110.593 Y87.75 E14.10865
G1 X110.466 Y88.15 E14.12959
G1 X110.351 Y88.443 E14.1453
G1 X110.35 Y88.443 E14.14534
G1 X109.356 Y91.006 E14.28249
G1 X108.767 Y92.682 E14.37112
G1 X108.757 Y92.711 E14.37265
G1 X108.357 Y93.815 E14.43124
G1 X108.218 Y94.14 E14.44887
G1 X108.114 Y94.351 E14.46061
G1 X108.07 Y94.438 E14.46547
G1 X107.692 Y95.149 E14.50564
G1 X107.649 Y95.227 E14.51009
G1 X107.418 Y95.634 E14.53344
G1 X107.383 Y95.693 E14.53686
G1 X107.219 Y95.968 E14.55283
G1 X107.036 Y96.242 E14.56927
G1 X105.427 Y98.4 E14.70357
G1 X104.576 Y99.593 E14.77668
G1 X103.808 Y100.689 E14.84344
G1 X103.544 Y101.018 E14.86449
G1 X102.87 Y101.751 E14.91417
G1 X102.79 Y101.834 E14.91992
G1 X102.54 Y102.087 E14.93766
G1 X102.27 Y102.331 E14.95582
G1 X101.512 Y102.941 E15.00436
G1 X101.476 Y102.97 E15.00667
G1 X100.83 Y103.475 E15.04758
G1 X98.758 Y105.191 E15.1818
G1 X98.426 Y105.482 E15.20382
G1 X98.383 Y105.519 E15.20665
G1 X97.656 Y106.134 E15.25416
G1 X97.367 Y106.352 E15.27222
G1 X97.144 Y106.501 E15.2856
G1 X97.063 Y106.553 E15.2904
G1 X96.441 Y106.942 E15.327
G1 X96.352 Y106.996 E15.3322
G1 X96.106 Y107.139 E15.34639
G1 X95.791 Y107.299 E15.36402
G1 X94.836 Y107.721 E15.41611
G1 X94.793 Y107.74 E15.41845
G1 X94.182 Y107.999 E15.45156
G1 X91.754 Y109.111 E15.5848
G1 X90.952 Y109.504 E15.62935
G1 X90.905 Y109.526 E15.63194
G1 X90.305 Y109.808 E15.66502
G1 X90.004 Y109.931 E15.68124
G1 X89.762 Y110.016 E15.69404
G1 X89.636 Y110.058 E15.70066
G1 X88.905 Y110.281 E15.73879
G1 X88.815 Y110.307 E15.74347
G1 X88.526 Y110.386 E15.75841
G1 X88.178 Y110.46 E15.77616
G1 X87.172 Y110.618 E15.82697
G1 X87.12 Y110.626 E15.82959
G1 X86.37 Y110.731 E15.86738
G1 X83.684 Y111.186 E16.00329
G1 X82.694 Y111.379 E16.05361
G1 X82.639 Y111.389 E16.0564
G1 X82.221 Y111.463 E16.07758
G1 X81.878 Y111.505 E16.09482
G1 X81.611 Y111.523 E16.10817
G1 X81.504 Y111.528 E16.11351
G1 X80.765 Y111.553 E16.1504
G1 X80.668 Y111.555 E16.15524
G1 X80.369 Y111.556 E16.17016
G1 X80.016 Y111.538 E16.18779
G1 X79.011 Y111.43 E16.23822
G1 X78.953 Y111.423 E16.24114
G1 X78.467 Y111.362 E16.26557
G1 X75.762 Y111.101 E16.40115
G1 X75.322 Y111.071 E16.42316
G1 X75.277 Y111.067 E16.42541
G1 X74.022 Y110.965 E16.48823
G1 X73.66 Y110.915 E16.50646
G1 X73.372 Y110.858 E16.52111
G1 X73.276 Y110.838 E16.526
G1 X72.437 Y110.645 E16.56895
G1 X72.349 Y110.623 E16.57348
G1 X71.995 Y110.531 E16.59173
G1 X71.932 Y110.514 E16.59498
G1 X71.627 Y110.428 E16.61079
G1 X71.311 Y110.321 E16.62743
G1 X68.586 Y109.236 E16.77377
G1 X66.79 Y108.571 E16.86931
G1 X66.202 Y108.36 E16.90048
