;FLAVOR:Marlin
;TIME:2635
;Filament used: 2.51699m
;Layer height: 0.2
;MINX:20.872
;MINY:45.9
;MINZ:0.3
;MAXX:108.446
;MAXY:121.297
;MAXZ:7.5
;Generated with Cura_SteamEngine 4.4.0
M140 S60
M105
M190 S60
M104 S210
M105
M109 S210
M82 ;absolute extrusion mode
G28 ;Home
G1 Z15.0 F6000 ;Move the platform down 15mm
;Prime the extruder
G92 E0
G1 F200 E3
G92 E0
G92 E0
G92 E0
G1 F1500 E-5
;LAYER_COUNT:32
;LAYER:0
M107
G1 F600 Z1.3
G0 F3600 X30.528 Y50.761 Z1.3
;TYPE:SKIRT
G1 F600 Z0.3
G1 F1500 E0
G1 X31.191 Y50.437 E0.03682
G1 X32.603 Y49.92 E0.11183
G1 X35.191 Y48.945 E0.24981
G1 X37.737 Y47.902 E0.38707
G1 X40.233 Y46.797 E0.52326
G1 X41.382 Y46.26 E0.58653
G1 X41.884 Y46.069 E0.61333
G1 X42.408 Y45.956 E0.64007
G1 X42.834 Y45.922 E0.66139
G1 X43.871 Y45.901 E0.71314
G1 X43.944 Y45.9 E0.71678
G1 X56.414 Y45.9 E1.33891
G1 X57.114 Y45.91 E1.37384
G1 X57.649 Y45.958 E1.40064
G1 X58.17 Y46.084 E1.42738
G1 X58.577 Y46.244 E1.4492
G1 X59.065 Y46.47 E1.47603
G1 X61.593 Y47.612 E1.61442
G1 X64.133 Y48.674 E1.75178
G1 X66.642 Y49.641 E1.88593
G1 X68.271 Y50.223 E1.97223
G1 X68.387 Y50.267 E1.97842
G1 X68.702 Y50.392 E1.99532
G1 X68.823 Y50.442 E2.00186
G1 X69.121 Y50.573 E2.0181
G1 X69.686 Y50.885 E2.0503
G1 X70.16 Y51.205 E2.07883
G1 X70.519 Y51.482 E2.10145
G1 X71.216 Y52.093 E2.14769
G1 X73.339 Y53.907 E2.28701
G1 X75.441 Y55.602 E2.42173
G1 X77.61 Y57.253 E2.55772
G1 X79.852 Y58.861 E2.69537
G1 X82.102 Y60.381 E2.83084
G1 X84.368 Y61.819 E2.96473
G1 X86.748 Y63.237 E3.10295
G1 X89.119 Y64.56 E3.23841
G1 X91.533 Y65.819 E3.37424
G1 X94.006 Y67.022 E3.51144
G1 X96.462 Y68.131 E3.64588
G1 X99.006 Y69.195 E3.78345
G1 X100.843 Y69.896 E3.88155
G1 X100.863 Y69.904 E3.88262
G1 X102.164 Y70.409 E3.95225
G1 X102.565 Y70.594 E3.97428
G1 X102.965 Y70.809 E3.99694
G1 X103.072 Y70.869 E4.00306
G1 X103.625 Y71.191 E4.03498
G1 X103.992 Y71.435 E4.05697
G1 X104.379 Y71.729 E4.08122
G1 X104.495 Y71.822 E4.08864
G1 X104.992 Y72.233 E4.12081
G1 X105.324 Y72.545 E4.14354
G1 X105.64 Y72.882 E4.16659
G1 X105.72 Y72.969 E4.17249
G1 X106.15 Y73.459 E4.20501
G1 X106.429 Y73.822 E4.22785
G1 X106.679 Y74.193 E4.25017
G1 X106.754 Y74.309 E4.25706
G1 X107.101 Y74.869 E4.28993
G1 X107.312 Y75.261 E4.31214
G1 X107.507 Y75.685 E4.33542
G1 X107.561 Y75.808 E4.34213
G1 X107.814 Y76.417 E4.37503
G1 X107.964 Y76.859 E4.39831
G1 X108.088 Y77.318 E4.42203
G1 X108.118 Y77.436 E4.42811
G1 X108.264 Y78.059 E4.46003
G1 X108.334 Y78.453 E4.48
G1 X108.358 Y78.654 E4.49009
G1 X108.368 Y78.751 E4.49496
G1 X108.392 Y79.012 E4.50804
G1 X108.399 Y79.095 E4.51219
G1 X108.444 Y79.75 E4.54495
G1 X108.446 Y80.204 E4.5676
G1 X108.425 Y80.568 E4.58579
G1 X108.415 Y80.704 E4.59259
G1 X108.36 Y81.278 E4.62136
G1 X108.304 Y81.65 E4.64013
G1 X108.197 Y82.178 E4.667
G1 X108.171 Y82.298 E4.67313
G1 X108.041 Y82.843 E4.70108
G1 X107.914 Y83.26 E4.72283
G1 X107.743 Y83.721 E4.74736
G1 X107.689 Y83.859 E4.75475
G1 X107.442 Y84.449 E4.78667
G1 X107.238 Y84.861 E4.8096
G1 X107.005 Y85.264 E4.83283
G1 X106.942 Y85.368 E4.83889
G1 X106.597 Y85.921 E4.87141
G1 X106.33 Y86.294 E4.8943
G1 X106.025 Y86.667 E4.91833
G1 X105.94 Y86.766 E4.92484
G1 X105.529 Y87.233 E4.95588
G1 X105.208 Y87.556 E4.9786
G1 X104.845 Y87.876 E5.00274
G1 X104.748 Y87.958 E5.00908
G1 X104.251 Y88.366 E5.04116
G1 X103.866 Y88.641 E5.06476
G1 X103.473 Y88.885 E5.08784
G1 X103.378 Y88.942 E5.09337
G1 X102.834 Y89.257 E5.12473
G1 X102.484 Y89.435 E5.14432
G1 X102.004 Y89.647 E5.1705
G1 X101.955 Y89.669 E5.17318
G1 X99.967 Y90.512 E5.28091
G1 X97.52 Y91.63 E5.41513
G1 X95.037 Y92.851 E5.55317
G1 X92.647 Y94.112 E5.68799
G1 X90.261 Y95.459 E5.82469
G1 X87.918 Y96.869 E5.96112
G1 X85.667 Y98.313 E6.09454
G1 X83.386 Y99.868 E6.23227
G1 X81.162 Y101.479 E6.36927
G1 X79.019 Y103.125 E6.50409
G1 X76.903 Y104.847 E6.64019
G1 X74.825 Y106.64 E6.77712
G1 X72.814 Y108.477 E6.91301
G1 X70.871 Y110.354 E7.04779
G1 X68.956 Y112.311 E7.1844
G1 X67.091 Y114.331 E7.32156
G1 X66.077 Y115.484 E7.39816
G1 X65.966 Y115.605 E7.40635
G1 X65.729 Y115.851 E7.4234
G1 X65.527 Y116.045 E7.43737
G1 X65.232 Y116.307 E7.45705
G1 X64.734 Y116.677 E7.48801
G1 X64.244 Y116.98 E7.51675
G1 X63.638 Y117.28 E7.55048
G1 X63.267 Y117.422 E7.5703
G1 X62.984 Y117.517 E7.5852
G1 X61.8 Y117.861 E7.64671
G1 X61.728 Y117.881 E7.65044
G1 X53.675 Y120.039 E8.06638
G1 X53.63 Y120.051 E8.0687
G1 X52.297 Y120.39 E8.13732
G1 X52.214 Y120.41 E8.14158
G1 X51.341 Y120.61 E8.18626
G1 X51.258 Y120.628 E8.1905
G1 X51.033 Y120.674 E8.20196
G1 X50.958 Y120.689 E8.20577
G1 X49.883 Y120.885 E8.26029
G1 X49.769 Y120.903 E8.26605
G1 X49.468 Y120.948 E8.28123
G1 X49.404 Y120.957 E8.28446
G1 X48.343 Y121.096 E8.33784
G1 X48.236 Y121.109 E8.34322
G1 X47.869 Y121.146 E8.36162
G1 X47.807 Y121.152 E8.36473
G1 X46.919 Y121.226 E8.40919
G1 X46.829 Y121.232 E8.41369
G1 X46.485 Y121.252 E8.43088
G1 X46.404 Y121.256 E8.43492
G1 X45.361 Y121.293 E8.48699
G1 X45.268 Y121.295 E8.49163
G1 X45.061 Y121.297 E8.50196
G1 X44.989 Y121.297 E8.50555
G1 X43.913 Y121.286 E8.55924
G1 X43.819 Y121.284 E8.56393
G1 X43.489 Y121.272 E8.5804
G1 X43.412 Y121.268 E8.58425
G1 X42.411 Y121.21 E8.63427
G1 X42.318 Y121.203 E8.63893
G1 X42.068 Y121.182 E8.65144
G1 X41.989 Y121.175 E8.6554
G1 X40.933 Y121.063 E8.70838
G1 X40.835 Y121.051 E8.7133
G1 X40.484 Y121.004 E8.73097
G1 X40.412 Y120.994 E8.7346
G1 X39.416 Y120.84 E8.78488
G1 X39.31 Y120.822 E8.79024
G1 X39.105 Y120.784 E8.80064
G1 X39.047 Y120.772 E8.8036
G1 X37.95 Y120.55 E8.85944
G1 X37.841 Y120.527 E8.865
G1 X37.449 Y120.435 E8.88509
G1 X37.387 Y120.419 E8.88828
G1 X36.059 Y120.082 E8.95663
G1 X36.011 Y120.07 E8.9591
G1 X27.381 Y117.755 E9.40488
G1 X27.335 Y117.742 E9.40726
G1 X26.663 Y117.552 E9.4421
G1 X26.272 Y117.417 E9.46274
G1 X25.922 Y117.273 E9.48162
G1 X25.82 Y117.229 E9.48716
G1 X25.637 Y117.147 E9.49717
G1 X25.096 Y116.847 E9.52803
G1 X24.626 Y116.53 E9.55631
G1 X24.103 Y116.1 E9.59009
G1 X23.701 Y115.701 E9.61835
G1 X23.258 Y115.168 E9.65293
G1 X22.924 Y114.676 E9.6826
G1 X22.636 Y114.166 E9.71182
G1 X22.518 Y113.911 E9.72583
G1 X22.401 Y113.627 E9.74116
G1 X22.128 Y112.875 E9.78107
G1 X22.09 Y112.764 E9.78692
G1 X21.919 Y112.24 E9.81442
G1 X21.874 Y112.091 E9.82219
G1 X21.643 Y111.264 E9.86503
G1 X21.603 Y111.107 E9.87311
G1 X21.383 Y110.156 E9.92181
G1 X21.347 Y109.985 E9.93053
G1 X21.167 Y108.988 E9.98107
G1 X21.141 Y108.82 E9.98955
G1 X21.026 Y107.951 E10.03329
G1 X21.008 Y107.789 E10.04142
G1 X20.921 Y106.782 E10.09184
G1 X20.911 Y106.607 E10.10059
G1 X20.875 Y105.649 E10.14842
G1 X20.872 Y105.487 E10.1565
G1 X20.879 Y104.55 E10.20325
G1 X20.885 Y104.376 E10.21194
G1 X20.937 Y103.448 E10.25831
G1 X20.95 Y103.283 E10.26656
G1 X21.049 Y102.313 E10.31521
G1 X21.071 Y102.137 E10.32406
G1 X21.226 Y101.119 E10.37543
G1 X21.256 Y100.948 E10.38409
G1 X21.438 Y100.047 E10.42995
G1 X21.479 Y99.868 E10.43911
G1 X21.771 Y98.726 E10.49792
G1 X21.797 Y98.631 E10.50284
G1 X22.401 Y96.513 E10.61272
G1 X23.083 Y93.857 E10.74952
G1 X23.683 Y91.222 E10.88435
G1 X24.218 Y88.509 E11.02231
G1 X24.556 Y86.541 E11.12193
G1 X24.563 Y86.499 E11.12405
G1 X24.652 Y86.015 E11.1486
G1 X25.107 Y83.316 E11.28516
G1 X25.483 Y80.639 E11.42003
G1 X25.787 Y77.917 E11.55667
G1 X26.013 Y75.198 E11.69279
G1 X26.161 Y72.472 E11.82899
G1 X26.233 Y69.743 E11.96519
G1 X26.227 Y67.028 E12.10064
G1 X26.09 Y62.897 E12.30685
G1 X26.088 Y62.752 E12.31409
G1 X26.094 Y61.905 E12.35634
G1 X26.096 Y61.797 E12.36173
G1 X26.108 Y61.474 E12.37786
G1 X26.112 Y61.393 E12.3819
G1 X26.157 Y60.64 E12.41954
G1 X26.17 Y60.482 E12.42745
G1 X26.266 Y59.561 E12.47365
G1 X26.288 Y59.392 E12.48215
G1 X26.438 Y58.407 E12.53186
G1 X26.469 Y58.235 E12.54058
G1 X26.665 Y57.267 E12.58985
G1 X26.702 Y57.101 E12.59833
G1 X26.928 Y56.205 E12.64444
G1 X26.972 Y56.046 E12.65267
G1 X27.252 Y55.117 E12.70107
G1 X27.308 Y54.949 E12.70991
G1 X27.533 Y54.317 E12.74338
G1 X27.629 Y54.073 E12.75646
G1 X27.74 Y53.821 E12.7702
G1 X27.796 Y53.701 E12.7768
G1 X27.941 Y53.402 E12.79338
G1 X28.255 Y52.874 E12.82403
G1 X28.461 Y52.587 E12.84166
G1 X28.527 Y52.498 E12.84718
G1 X28.677 Y52.302 E12.8595
G1 X29.112 Y51.829 E12.89156
G1 X29.516 Y51.461 E12.91882
G1 X30.038 Y51.066 E12.95148
G1 X30.528 Y50.761 E12.98028
G0 F3600 X30.739 Y51.1
G1 F1500 X31.329 Y50.812 E13.01303
G1 X32.77 Y50.284 E13.0896
G1 X35.365 Y49.306 E13.22795
G1 X37.87 Y48.281 E13.36298
G1 X40.402 Y47.159 E13.50115
G1 X41.552 Y46.622 E13.56447
G1 X42.025 Y46.445 E13.58967
G1 X42.521 Y46.344 E13.61492
G1 X42.842 Y46.322 E13.63097
G1 X43.879 Y46.301 E13.68272
G1 X43.944 Y46.3 E13.68596
G1 X56.409 Y46.3 E14.30785
G1 X57.109 Y46.31 E14.34277
G1 X57.612 Y46.357 E14.36798
G1 X58.102 Y46.483 E14.39322
G1 X58.409 Y46.607 E14.40974
G1 X58.901 Y46.835 E14.43679
G1 X61.423 Y47.975 E14.57487
G1 X63.983 Y49.045 E14.7133
G1 X66.527 Y50.025 E14.84931
G1 X68.136 Y50.6 E14.93455
G1 X68.239 Y50.639 E14.94005
G1 X68.554 Y50.764 E14.95696
G1 X68.662 Y50.809 E14.96279
G1 X68.96 Y50.94 E14.97903
G1 X69.463 Y51.217 E15.00768
G1 X69.937 Y51.537 E15.03621
G1 X70.256 Y51.783 E15.05631
G1 X70.956 Y52.397 E15.10277
G1 X73.074 Y54.206 E15.24173
G1 X75.216 Y55.934 E15.37903
G1 X77.358 Y57.564 E15.51332
G1 X79.618 Y59.184 E15.65205
G1 X81.87 Y60.706 E15.78765
G1 X84.196 Y62.183 E15.92512
G1 X86.554 Y63.588 E16.06206
G1 X88.911 Y64.903 E16.19671
G1 X91.351 Y66.176 E16.33402
G1 X93.832 Y67.382 E16.47164
G1 X96.305 Y68.499 E16.60702
G1 X98.862 Y69.569 E16.74531
G1 X100.7 Y70.27 E16.84345
G1 X100.718 Y70.277 E16.84442
G1 X102.019 Y70.782 E16.91404
G1 X102.376 Y70.946 E16.93364
G1 X102.776 Y71.161 E16.9563
G1 X102.871 Y71.215 E16.96175
G1 X103.424 Y71.537 E16.99368
G1 X103.75 Y71.754 E17.01321
G1 X104.137 Y72.048 E17.03746
G1 X104.24 Y72.13 E17.04403
G1 X104.737 Y72.541 E17.0762
G1 X105.032 Y72.818 E17.09639
G1 X105.348 Y73.155 E17.11944
G1 X105.419 Y73.233 E17.1247
G1 X105.849 Y73.723 E17.15723
G1 X106.098 Y74.046 E17.17758
G1 X106.348 Y74.417 E17.19989
G1 X106.414 Y74.519 E17.20596
G1 X106.761 Y75.079 E17.23882
G1 X106.948 Y75.428 E17.25858
G1 X107.143 Y75.852 E17.28186
G1 X107.191 Y75.961 E17.2878
G1 X107.444 Y76.57 E17.3207
G1 X107.578 Y76.963 E17.34142
G1 X107.702 Y77.422 E17.36514
G1 X107.729 Y77.527 E17.37055
G1 X107.875 Y78.15 E17.40247
G1 X107.936 Y78.501 E17.42025
G1 X107.96 Y78.702 E17.43034
G1 X107.97 Y78.788 E17.43466
G1 X107.994 Y79.049 E17.44774
G1 X107.999 Y79.123 E17.45144
G1 X108.044 Y79.778 E17.4842
G1 X108.047 Y80.181 E17.5043
G1 X108.026 Y80.545 E17.52249
G1 X108.016 Y80.666 E17.52855
G1 X107.961 Y81.24 E17.55732
G1 X107.912 Y81.571 E17.57401
G1 X107.805 Y82.099 E17.60089
G1 X107.782 Y82.205 E17.6063
G1 X107.652 Y82.75 E17.63425
G1 X107.539 Y83.121 E17.6536
G1 X107.368 Y83.582 E17.67813
G1 X107.32 Y83.705 E17.68472
G1 X107.073 Y84.295 E17.71663
G1 X106.891 Y84.661 E17.73702
G1 X106.658 Y85.064 E17.76025
G1 X106.603 Y85.156 E17.76559
G1 X106.258 Y85.709 E17.79811
G1 X106.02 Y86.041 E17.81849
G1 X105.715 Y86.414 E17.84253
G1 X105.64 Y86.502 E17.8483
G1 X105.229 Y86.969 E17.87934
G1 X104.943 Y87.255 E17.89952
G1 X104.58 Y87.575 E17.92366
G1 X104.494 Y87.648 E17.92929
G1 X103.997 Y88.056 E17.96137
G1 X103.655 Y88.302 E17.98238
G1 X103.262 Y88.546 E18.00546
G1 X103.178 Y88.596 E18.01034
G1 X102.634 Y88.911 E18.0417
G1 X102.323 Y89.069 E18.0591
G1 X101.843 Y89.281 E18.08528
G1 X101.799 Y89.3 E18.08767
G1 X99.824 Y90.137 E18.19469
G1 X97.342 Y91.272 E18.33085
G1 X94.852 Y92.496 E18.46928
G1 X92.47 Y93.753 E18.60365
G1 X90.063 Y95.112 E18.74155
G1 X87.733 Y96.514 E18.87722
G1 X85.39 Y98.017 E19.01609
G1 X83.17 Y99.53 E19.15012
G1 X80.929 Y101.153 E19.28817
G1 X78.768 Y102.813 E19.42412
G1 X76.635 Y104.55 E19.56136
G1 X74.577 Y106.325 E19.69695
G1 X72.549 Y108.177 E19.83396
G1 X70.572 Y110.088 E19.97114
G1 X68.66 Y112.042 E20.10753
G1 X66.8 Y114.055 E20.24427
G1 X65.777 Y115.219 E20.32158
G1 X65.678 Y115.327 E20.32889
G1 X65.441 Y115.573 E20.34594
G1 X65.261 Y115.746 E20.35839
G1 X64.966 Y116.008 E20.37808
G1 X64.524 Y116.337 E20.40556
G1 X64.034 Y116.64 E20.43431
G1 X63.495 Y116.907 E20.46432
G1 X63.124 Y117.049 E20.48414
G1 X62.873 Y117.133 E20.49734
G1 X61.689 Y117.477 E20.55885
G1 X61.624 Y117.495 E20.56222
G1 X53.571 Y119.653 E20.97816
G1 X53.532 Y119.663 E20.98017
G1 X52.199 Y120.002 E21.04879
G1 X52.125 Y120.02 E21.05259
G1 X51.252 Y120.22 E21.09727
G1 X51.178 Y120.236 E21.10105
G1 X50.953 Y120.282 E21.11251
G1 X50.886 Y120.295 E21.11591
G1 X49.811 Y120.491 E21.17043
G1 X49.71 Y120.508 E21.17554
G1 X49.409 Y120.553 E21.19072
G1 X49.352 Y120.561 E21.19359
G1 X48.291 Y120.7 E21.24698
G1 X48.196 Y120.711 E21.25175
G1 X47.829 Y120.748 E21.27015
G1 X47.774 Y120.753 E21.27291
G1 X46.886 Y120.827 E21.31736
G1 X46.806 Y120.833 E21.32136
G1 X46.462 Y120.853 E21.33856
G1 X46.389 Y120.856 E21.3422
G1 X45.346 Y120.893 E21.39427
G1 X45.264 Y120.895 E21.39836
G1 X45.057 Y120.897 E21.40869
G1 X44.993 Y120.897 E21.41188
G1 X43.917 Y120.886 E21.46557
G1 X43.834 Y120.884 E21.46971
G1 X43.504 Y120.872 E21.48618
G1 X43.435 Y120.869 E21.48963
G1 X42.434 Y120.811 E21.53965
G1 X42.351 Y120.805 E21.5438
G1 X42.101 Y120.784 E21.55632
G1 X42.031 Y120.777 E21.55983
G1 X40.975 Y120.665 E21.61281
G1 X40.888 Y120.655 E21.61718
G1 X40.537 Y120.608 E21.63485
G1 X40.473 Y120.598 E21.63808
G1 X39.477 Y120.444 E21.68836
G1 X39.383 Y120.428 E21.69312
G1 X39.178 Y120.39 E21.70352
G1 X39.126 Y120.38 E21.70616
G1 X38.029 Y120.158 E21.762
G1 X37.933 Y120.137 E21.7669
G1 X37.541 Y120.045 E21.78699
G1 X37.485 Y120.032 E21.78986
G1 X36.157 Y119.695 E21.85821
G1 X36.115 Y119.684 E21.86038
G1 X27.485 Y117.369 E22.30615
G1 X27.443 Y117.357 E22.30833
G1 X26.771 Y117.167 E22.34317
G1 X26.424 Y117.047 E22.36149
G1 X26.074 Y116.903 E22.38037
G1 X25.983 Y116.864 E22.38531
G1 X25.8 Y116.782 E22.39532
G1 X25.32 Y116.515 E22.42272
G1 X24.85 Y116.198 E22.451
G1 X24.385 Y115.816 E22.48103
G1 X23.983 Y115.417 E22.50928
G1 X23.589 Y114.943 E22.54003
G1 X23.255 Y114.451 E22.5697
G1 X22.999 Y113.998 E22.59566
G1 X22.881 Y113.743 E22.60968
G1 X22.777 Y113.491 E22.62328
G1 X22.504 Y112.739 E22.66319
G1 X22.47 Y112.64 E22.66842
G1 X22.299 Y112.116 E22.69592
G1 X22.259 Y111.984 E22.7028
G1 X22.028 Y111.157 E22.74564
G1 X21.992 Y111.017 E22.75285
G1 X21.772 Y110.066 E22.80155
G1 X21.741 Y109.914 E22.80929
G1 X21.561 Y108.917 E22.85983
G1 X21.538 Y108.768 E22.86735
G1 X21.423 Y107.899 E22.91108
G1 X21.407 Y107.754 E22.91836
G1 X21.32 Y106.747 E22.96879
G1 X21.31 Y106.592 E22.97654
G1 X21.274 Y105.634 E23.02437
G1 X21.272 Y105.49 E23.03155
G1 X21.279 Y104.553 E23.0783
G1 X21.284 Y104.398 E23.08604
G1 X21.336 Y103.47 E23.13241
G1 X21.348 Y103.324 E23.13972
G1 X21.447 Y102.354 E23.18836
G1 X21.466 Y102.197 E23.19625
G1 X21.621 Y101.179 E23.24762
G1 X21.648 Y101.027 E23.25533
G1 X21.83 Y100.126 E23.30119
G1 X21.867 Y99.967 E23.30933
G1 X22.159 Y98.825 E23.36814
G1 X22.182 Y98.74 E23.37253
G1 X22.78 Y96.641 E23.48142
G1 X23.48 Y93.916 E23.62178
G1 X24.079 Y91.284 E23.75645
G1 X24.606 Y88.615 E23.89218
G1 X24.95 Y86.609 E23.99372
G1 X24.957 Y86.571 E23.99565
G1 X25.046 Y86.087 E24.0202
G1 X25.499 Y83.401 E24.1561
G1 X25.883 Y80.663 E24.29403
G1 X26.185 Y77.962 E24.42963
G1 X26.413 Y75.217 E24.56705
G1 X26.561 Y72.505 E24.70255
G1 X26.633 Y69.752 E24.83994
G1 X26.627 Y67.014 E24.97654
G1 X26.49 Y62.884 E25.1827
G1 X26.488 Y62.755 E25.18914
G1 X26.494 Y61.908 E25.2314
G1 X26.496 Y61.812 E25.23619
G1 X26.508 Y61.489 E25.25231
G1 X26.512 Y61.417 E25.25591
G1 X26.557 Y60.664 E25.29355
G1 X26.568 Y60.523 E25.3006
G1 X26.664 Y59.602 E25.3468
G1 X26.683 Y59.452 E25.35434
G1 X26.833 Y58.467 E25.40405
G1 X26.861 Y58.314 E25.41181
G1 X27.057 Y57.346 E25.46109
G1 X27.09 Y57.198 E25.46865
G1 X27.316 Y56.302 E25.51475
G1 X27.355 Y56.162 E25.522
G1 X27.635 Y55.233 E25.57041
G1 X27.684 Y55.083 E25.57828
G1 X27.909 Y54.451 E25.61175
G1 X27.996 Y54.234 E25.62342
G1 X28.107 Y53.982 E25.63715
G1 X28.156 Y53.876 E25.64298
G1 X28.301 Y53.577 E25.65956
G1 X28.58 Y53.107 E25.68683
G1 X28.786 Y52.82 E25.70445
G1 X28.845 Y52.741 E25.70937
G1 X28.995 Y52.545 E25.72168
G1 X29.381 Y52.124 E25.75018
G1 X29.785 Y51.756 E25.77744
G1 X30.249 Y51.405 E25.80647
