;FLAVOR:Marlin
;TIME:2632
;Filament used: 2.51631m
;Layer height: 0.2
;MINX:40.704
;MINY:43.236
;MINZ:0.3
;MAXX:109.446
;MAXY:116.755
;MAXZ:7.5
;Generated with Cura_SteamEngine 4.4.0
M140 S60
M105
M190 S60
M104 S210
M105
M109 S210
M82 ;absolute extrusion mode
G28 ;Home
G1 Z15.0 F6000 ;Move the platform down 15mm
;Prime the extruder
G92 E0
G1 F200 E3
G92 E0
G92 E0
G92 E0
G1 F1500 E-5
;LAYER_COUNT:32
;LAYER:0
M107
G1 F600 Z1.3
G0 F3600 X45.201 Y49.125 Z1.3
;TYPE:SKIRT
G1 F600 Z0.3
G1 F1500 E0
G1 X45.58 Y48.783 E0.02547
G1 X46.098 Y48.394 E0.05779
G1 X46.583 Y48.094 E0.08624
G1 X47.23 Y47.779 E0.12214
G1 X48.897 Y47.163 E0.2108
G1 X51.518 Y46.168 E0.35067
G1 X54.005 Y45.142 E0.48489
G1 X56.522 Y44.02 E0.62238
G1 X57.432 Y43.595 E0.67248
G1 X57.933 Y43.405 E0.69922
G1 X58.457 Y43.292 E0.72596
G1 X58.882 Y43.258 E0.74723
G1 X59.919 Y43.237 E0.79898
G1 X59.992 Y43.236 E0.80262
G1 X72.462 Y43.236 E1.42475
G1 X73.165 Y43.246 E1.45983
G1 X73.699 Y43.294 E1.48658
G1 X74.221 Y43.42 E1.51337
G1 X74.644 Y43.587 E1.53606
G1 X75.138 Y43.819 E1.56328
G1 X77.624 Y44.943 E1.6994
G1 X80.168 Y46.009 E1.83701
G1 X82.686 Y46.977 E1.9716
G1 X84.292 Y47.55 E2.05667
G1 X84.404 Y47.592 E2.06264
G1 X84.751 Y47.729 E2.08125
G1 X84.878 Y47.782 E2.08812
G1 X85.169 Y47.91 E2.10398
G1 X85.664 Y48.175 E2.13199
G1 X85.904 Y48.329 E2.14621
G1 X85.976 Y48.376 E2.1505
G1 X88.188 Y49.871 E2.2837
G1 X90.493 Y51.337 E2.41999
G1 X92.836 Y52.735 E2.55611
G1 X95.212 Y54.064 E2.69193
G1 X97.606 Y55.314 E2.82667
G1 X100.081 Y56.518 E2.96398
G1 X102.557 Y57.638 E3.09956
G1 X102.8 Y57.742 E3.11275
G1 X102.856 Y57.767 E3.11581
G1 X103.324 Y57.976 E3.14138
G1 X103.556 Y58.09 E3.15427
G1 X103.961 Y58.307 E3.1772
G1 X104.071 Y58.368 E3.18347
G1 X104.623 Y58.689 E3.21533
G1 X104.992 Y58.935 E3.23745
G1 X105.38 Y59.23 E3.26177
G1 X105.496 Y59.322 E3.26916
G1 X105.994 Y59.734 E3.3014
G1 X106.325 Y60.046 E3.3241
G1 X106.64 Y60.382 E3.34707
G1 X106.72 Y60.469 E3.35297
G1 X107.15 Y60.959 E3.3855
G1 X107.429 Y61.322 E3.40834
G1 X107.679 Y61.693 E3.43066
G1 X107.754 Y61.809 E3.43755
G1 X108.101 Y62.369 E3.47041
G1 X108.312 Y62.761 E3.49263
G1 X108.507 Y63.185 E3.51591
G1 X108.561 Y63.308 E3.52261
G1 X108.814 Y63.917 E3.55551
G1 X108.964 Y64.359 E3.5788
G1 X109.088 Y64.818 E3.60252
G1 X109.118 Y64.936 E3.60859
G1 X109.264 Y65.559 E3.64052
G1 X109.334 Y65.953 E3.66048
G1 X109.358 Y66.154 E3.67058
G1 X109.368 Y66.251 E3.67544
G1 X109.392 Y66.512 E3.68852
G1 X109.399 Y66.595 E3.69268
G1 X109.444 Y67.25 E3.72543
G1 X109.445 Y67.724 E3.74908
G1 X109.409 Y68.295 E3.77762
G1 X109.257 Y71.046 E3.91508
G1 X109.183 Y73.778 E4.05143
G1 X109.186 Y76.509 E4.18768
G1 X109.266 Y79.219 E4.32294
G1 X109.399 Y81.612 E4.44251
G1 X109.443 Y82.248 E4.47432
G1 X109.446 Y82.703 E4.49702
G1 X109.425 Y83.068 E4.51526
G1 X109.415 Y83.204 E4.52206
G1 X109.36 Y83.778 E4.55083
G1 X109.304 Y84.15 E4.5696
G1 X109.197 Y84.678 E4.59648
G1 X109.171 Y84.798 E4.6026
G1 X109.041 Y85.343 E4.63056
G1 X108.914 Y85.76 E4.6523
G1 X108.743 Y86.221 E4.67684
G1 X108.689 Y86.359 E4.68423
G1 X108.442 Y86.949 E4.71614
G1 X108.238 Y87.361 E4.73908
G1 X108.005 Y87.764 E4.7623
G1 X107.942 Y87.868 E4.76837
G1 X107.597 Y88.421 E4.80088
G1 X107.315 Y88.811 E4.82489
G1 X105.359 Y91.172 E4.97786
G1 X103.674 Y93.319 E5.11402
G1 X102.054 Y95.506 E5.2498
G1 X100.486 Y97.755 E5.38659
G1 X98.996 Y100.024 E5.52201
G1 X97.568 Y102.339 E5.65771
G1 X96.192 Y104.718 E5.79483
G1 X94.904 Y107.096 E5.92975
G1 X93.994 Y108.882 E6.02975
G1 X93.522 Y109.832 E6.08268
G1 X93.19 Y110.374 E6.11439
G1 X92.84 Y110.846 E6.1437
G1 X92.377 Y111.359 E6.17818
G1 X91.97 Y111.731 E6.20569
G1 X91.429 Y112.139 E6.23949
G1 X90.942 Y112.439 E6.26803
G1 X90.342 Y112.736 E6.30143
G1 X89.961 Y112.882 E6.32179
G1 X89.678 Y112.977 E6.33668
G1 X88.543 Y113.307 E6.39565
G1 X88.47 Y113.327 E6.39943
G1 X80.362 Y115.5 E6.81821
G1 X80.324 Y115.51 E6.82017
G1 X79.185 Y115.802 E6.87883
G1 X79.105 Y115.822 E6.88295
G1 X78.101 Y116.055 E6.93437
G1 X78.003 Y116.076 E6.93937
G1 X77.614 Y116.155 E6.95917
G1 X77.534 Y116.17 E6.96323
G1 X76.526 Y116.351 E7.01433
G1 X76.426 Y116.368 E7.01939
G1 X76.207 Y116.401 E7.03044
G1 X76.14 Y116.41 E7.03381
G1 X75.082 Y116.549 E7.08705
G1 X74.993 Y116.56 E7.09152
G1 X74.644 Y116.597 E7.10903
G1 X74.561 Y116.605 E7.11319
G1 X73.596 Y116.685 E7.1615
G1 X73.504 Y116.691 E7.1661
G1 X73.118 Y116.713 E7.18539
G1 X73.035 Y116.717 E7.18953
G1 X71.972 Y116.753 E7.2426
G1 X71.85 Y116.755 E7.24868
G1 X71.519 Y116.755 E7.2652
G1 X70.586 Y116.744 E7.31175
G1 X70.504 Y116.742 E7.31584
G1 X70.243 Y116.733 E7.32887
G1 X70.158 Y116.729 E7.33312
G1 X69.076 Y116.666 E7.38719
G1 X68.958 Y116.657 E7.39309
G1 X68.574 Y116.622 E7.41233
G1 X68.513 Y116.616 E7.41539
G1 X67.609 Y116.518 E7.46075
G1 X67.528 Y116.508 E7.46482
G1 X67.216 Y116.467 E7.48052
G1 X67.133 Y116.455 E7.48471
G1 X66.109 Y116.296 E7.53641
G1 X66.013 Y116.28 E7.54126
G1 X65.767 Y116.235 E7.55374
G1 X65.699 Y116.222 E7.55719
G1 X64.659 Y116.011 E7.61014
G1 X64.55 Y115.987 E7.61571
G1 X64.057 Y115.871 E7.64097
G1 X63.991 Y115.855 E7.64436
G1 X62.809 Y115.553 E7.70523
G1 X62.768 Y115.542 E7.70734
G1 X54.105 Y113.22 E8.1548
G1 X54.057 Y113.207 E8.15728
G1 X53.35 Y113.007 E8.19394
G1 X52.97 Y112.876 E8.21399
G1 X52.72 Y112.774 E8.22746
G1 X52.624 Y112.733 E8.23267
G1 X52.364 Y112.618 E8.24685
G1 X51.815 Y112.316 E8.27811
G1 X51.332 Y111.992 E8.30713
G1 X50.798 Y111.554 E8.34158
G1 X50.397 Y111.155 E8.36981
G1 X49.963 Y110.633 E8.40368
G1 X49.664 Y110.195 E8.43013
G1 X49.373 Y109.683 E8.45951
G1 X49.167 Y109.24 E8.48389
G1 X49.049 Y108.956 E8.49923
G1 X48.876 Y108.482 E8.52441
G1 X48.836 Y108.367 E8.53048
G1 X48.623 Y107.716 E8.56465
G1 X48.579 Y107.571 E8.57221
G1 X48.432 Y107.048 E8.59932
G1 X47.659 Y104.44 E8.73502
G1 X46.806 Y101.829 E8.87206
G1 X45.888 Y99.273 E9.00756
G1 X44.887 Y96.715 E9.1446
G1 X43.845 Y94.256 E9.27784
G1 X42.338 Y91.004 E9.45666
G1 X42.133 Y90.58 E9.48015
G1 X42.067 Y90.436 E9.48806
G1 X41.838 Y89.905 E9.51691
G1 X41.77 Y89.733 E9.52613
G1 X41.557 Y89.16 E9.55663
G1 X41.497 Y88.988 E9.56572
G1 X41.33 Y88.458 E9.59344
G1 X41.282 Y88.289 E9.60221
G1 X41.137 Y87.736 E9.63073
G1 X41.096 Y87.566 E9.63946
G1 X40.971 Y86.973 E9.66969
G1 X40.94 Y86.805 E9.67821
G1 X40.875 Y86.403 E9.69853
G1 X40.861 Y86.306 E9.70342
G1 X40.826 Y86.045 E9.71656
G1 X40.815 Y85.954 E9.72113
G1 X40.763 Y85.473 E9.74527
G1 X40.748 Y85.298 E9.75403
G1 X40.717 Y84.772 E9.78032
G1 X40.711 Y84.603 E9.78875
G1 X40.704 Y84.022 E9.81774
G1 X40.707 Y83.839 E9.82687
G1 X40.728 Y83.3 E9.85379
G1 X40.738 Y83.13 E9.86228
G1 X40.779 Y82.656 E9.88602
G1 X40.797 Y82.494 E9.89415
G1 X40.865 Y81.98 E9.92002
G1 X40.878 Y81.891 E9.9245
G1 X41.024 Y80.966 E9.97122
G1 X41.315 Y79.074 E10.06673
G1 X41.658 Y76.377 E10.20236
G1 X41.93 Y73.62 E10.34058
G1 X42.118 Y70.937 E10.47476
G1 X42.232 Y68.207 E10.61108
G1 X42.268 Y65.47 E10.74764
G1 X42.227 Y62.696 E10.88605
G1 X42.197 Y61.941 E10.92375
G1 X42.196 Y61.923 E10.92465
G1 X42.139 Y60.26 E11.00767
G1 X42.137 Y60.107 E11.0153
G1 X42.145 Y59.138 E11.06364
G1 X42.151 Y58.969 E11.07208
G1 X42.205 Y57.994 E11.1208
G1 X42.218 Y57.821 E11.12945
G1 X42.314 Y56.898 E11.17575
G1 X42.336 Y56.727 E11.18435
G1 X42.488 Y55.73 E11.23467
G1 X42.519 Y55.559 E11.24334
G1 X42.699 Y54.67 E11.28859
G1 X42.734 Y54.513 E11.29662
G1 X42.98 Y53.527 E11.34731
G1 X43.028 Y53.353 E11.35632
G1 X43.287 Y52.499 E11.40084
G1 X43.333 Y52.357 E11.40829
G1 X43.569 Y51.681 E11.44401
G1 X43.673 Y51.417 E11.45817
G1 X43.78 Y51.174 E11.47141
G1 X43.832 Y51.061 E11.47762
G1 X43.982 Y50.75 E11.49485
G1 X44.307 Y50.206 E11.52646
G1 X44.554 Y49.864 E11.54751
G1 X44.675 Y49.705 E11.55748
G1 X44.816 Y49.531 E11.56865
G1 X45.201 Y49.125 E11.59656
G0 F3600 X45.469 Y49.422
G1 F1500 X45.848 Y49.08 E11.62203
G1 X46.309 Y48.735 E11.65076
G1 X46.794 Y48.435 E11.67921
G1 X47.369 Y48.154 E11.71114
G1 X49.039 Y47.537 E11.79996
G1 X51.664 Y46.54 E11.94005
G1 X54.154 Y45.514 E12.07441
G1 X56.714 Y44.372 E12.21426
G1 X57.601 Y43.958 E12.2631
G1 X58.075 Y43.78 E12.28836
G1 X58.57 Y43.68 E12.31355
G1 X58.89 Y43.658 E12.32955
G1 X59.927 Y43.637 E12.3813
G1 X59.992 Y43.636 E12.38454
G1 X72.457 Y43.636 E13.00643
G1 X73.16 Y43.646 E13.0415
G1 X73.663 Y43.693 E13.06671
G1 X74.153 Y43.819 E13.09195
G1 X74.474 Y43.95 E13.10924
G1 X74.926 Y44.162 E13.13415
G1 X77.471 Y45.313 E13.2735
G1 X80.007 Y46.375 E13.41067
G1 X82.535 Y47.347 E13.5458
G1 X84.158 Y47.926 E13.63177
G1 X84.257 Y47.964 E13.63706
G1 X84.604 Y48.101 E13.65567
G1 X84.717 Y48.148 E13.66177
G1 X85.008 Y48.276 E13.67764
G1 X85.448 Y48.512 E13.70254
G1 X85.688 Y48.666 E13.71677
G1 X85.752 Y48.708 E13.72059
G1 X87.971 Y50.208 E13.85422
G1 X90.279 Y51.675 E13.99066
G1 X92.615 Y53.069 E14.12637
G1 X95.011 Y54.409 E14.26333
G1 X97.453 Y55.684 E14.40077
G1 X99.891 Y56.871 E14.53606
G1 X102.415 Y58.013 E14.67427
G1 X102.643 Y58.11 E14.68663
G1 X102.693 Y58.132 E14.68935
G1 X103.161 Y58.341 E14.71493
G1 X103.367 Y58.442 E14.72637
G1 X103.772 Y58.659 E14.7493
G1 X103.87 Y58.714 E14.7549
G1 X104.422 Y59.035 E14.78676
G1 X104.75 Y59.254 E14.80644
G1 X105.138 Y59.549 E14.83075
G1 X105.241 Y59.63 E14.83729
G1 X105.739 Y60.042 E14.86954
G1 X106.034 Y60.319 E14.88972
G1 X106.349 Y60.655 E14.9127
G1 X106.419 Y60.733 E14.91793
G1 X106.849 Y61.223 E14.95046
G1 X107.098 Y61.546 E14.9708
G1 X107.348 Y61.917 E14.99312
G1 X107.414 Y62.019 E14.99918
G1 X107.761 Y62.579 E15.03205
G1 X107.948 Y62.928 E15.0518
G1 X108.143 Y63.352 E15.07509
G1 X108.191 Y63.461 E15.08103
G1 X108.444 Y64.07 E15.11393
G1 X108.578 Y64.463 E15.13464
G1 X108.702 Y64.922 E15.15837
G1 X108.729 Y65.027 E15.16377
G1 X108.875 Y65.65 E15.1957
G1 X108.936 Y66.001 E15.21347
G1 X108.96 Y66.202 E15.22357
G1 X108.97 Y66.288 E15.22789
G1 X108.994 Y66.549 E15.24097
G1 X108.999 Y66.623 E15.24467
G1 X109.044 Y67.278 E15.27742
G1 X109.046 Y67.698 E15.29838
G1 X109.01 Y68.269 E15.32692
G1 X108.859 Y70.99 E15.46288
G1 X108.783 Y73.767 E15.60148
G1 X108.786 Y76.486 E15.73713
G1 X108.867 Y79.252 E15.87518
G1 X109.003 Y81.681 E15.99656
G1 X109.044 Y82.275 E16.02626
G1 X109.047 Y82.68 E16.04647
G1 X109.026 Y83.045 E16.06471
G1 X109.016 Y83.166 E16.07077
G1 X108.961 Y83.74 E16.09953
G1 X108.912 Y84.071 E16.11623
G1 X108.805 Y84.599 E16.14311
G1 X108.782 Y84.705 E16.14852
G1 X108.652 Y85.25 E16.17647
G1 X108.539 Y85.621 E16.19582
G1 X108.368 Y86.082 E16.22035
G1 X108.32 Y86.205 E16.22694
G1 X108.073 Y86.795 E16.25885
G1 X107.891 Y87.161 E16.27924
G1 X107.658 Y87.564 E16.30246
G1 X107.603 Y87.656 E16.30781
G1 X107.258 Y88.209 E16.34033
G1 X107.007 Y88.556 E16.3617
G1 X105.057 Y90.911 E16.51424
G1 X103.354 Y93.079 E16.65178
G1 X101.733 Y95.268 E16.78767
G1 X100.145 Y97.545 E16.92617
G1 X98.648 Y99.825 E17.06225
G1 X97.223 Y102.135 E17.19766
G1 X95.852 Y104.507 E17.33434
G1 X94.521 Y106.964 E17.47375
G1 X93.651 Y108.672 E17.56938
G1 X93.652 Y108.672 E17.56943
G1 X93.164 Y109.654 E17.62414
G1 X92.868 Y110.136 E17.65236
G1 X92.518 Y110.608 E17.68168
G1 X92.107 Y111.064 E17.7123
G1 X91.7 Y111.436 E17.73981
G1 X91.219 Y111.799 E17.76988
G1 X90.732 Y112.099 E17.79841
G1 X90.199 Y112.362 E17.82807
G1 X89.818 Y112.508 E17.84842
G1 X89.566 Y112.593 E17.86169
G1 X88.431 Y112.923 E17.92066
G1 X88.366 Y112.941 E17.92403
G1 X80.258 Y115.114 E18.34281
G1 X80.225 Y115.123 E18.34452
G1 X79.086 Y115.415 E18.40318
G1 X79.014 Y115.432 E18.40687
G1 X78.01 Y115.665 E18.45829
G1 X77.924 Y115.684 E18.46269
G1 X77.535 Y115.763 E18.48249
G1 X77.464 Y115.777 E18.4861
G1 X76.456 Y115.958 E18.53719
G1 X76.367 Y115.972 E18.54169
G1 X76.148 Y116.005 E18.55274
G1 X76.088 Y116.014 E18.55576
G1 X75.03 Y116.153 E18.609
G1 X74.95 Y116.162 E18.61302
G1 X74.601 Y116.199 E18.63053
G1 X74.528 Y116.206 E18.63419
G1 X73.563 Y116.286 E18.6825
G1 X73.481 Y116.292 E18.6866
G1 X73.095 Y116.314 E18.70589
G1 X73.021 Y116.317 E18.70958
G1 X71.958 Y116.353 E18.76264
G1 X71.85 Y116.355 E18.76803
G1 X71.523 Y116.355 E18.78435
G1 X70.59 Y116.344 E18.8309
G1 X70.518 Y116.342 E18.83449
G1 X70.257 Y116.333 E18.84752
G1 X70.181 Y116.33 E18.85132
G1 X69.099 Y116.267 E18.90539
G1 X68.995 Y116.259 E18.91059
G1 X68.611 Y116.224 E18.92983
G1 X68.556 Y116.218 E18.93259
G1 X67.652 Y116.12 E18.97795
G1 X67.58 Y116.112 E18.98157
G1 X67.268 Y116.071 E18.99727
G1 X67.194 Y116.06 E19.001
G1 X66.17 Y115.901 E19.0527
G1 X66.085 Y115.887 E19.057
G1 X65.839 Y115.842 E19.06947
G1 X65.779 Y115.83 E19.07253
G1 X64.739 Y115.619 E19.12547
G1 X64.642 Y115.598 E19.13042
G1 X64.149 Y115.482 E19.15569
G1 X64.09 Y115.467 E19.15873
G1 X62.908 Y115.165 E19.21959
G1 X62.872 Y115.156 E19.22144
G1 X54.209 Y112.834 E19.6689
G1 X54.166 Y112.822 E19.67112
G1 X53.459 Y112.622 E19.70778
G1 X53.121 Y112.506 E19.72561
G1 X52.871 Y112.404 E19.73908
G1 X52.786 Y112.368 E19.74369
G1 X52.526 Y112.253 E19.75787
G1 X52.037 Y111.983 E19.78574
G1 X51.554 Y111.659 E19.81475
G1 X51.08 Y111.27 E19.84535
G1 X50.679 Y110.871 E19.87357
G1 X50.293 Y110.407 E19.90368
G1 X49.994 Y109.969 E19.93014
G1 X49.735 Y109.514 E19.95626
G1 X49.529 Y109.071 E19.98063
G1 X49.425 Y108.819 E19.99423
G1 X49.252 Y108.345 E20.01941
G1 X49.217 Y108.243 E20.02479
G1 X49.004 Y107.592 E20.05896
G1 X48.964 Y107.463 E20.0657
G1 X48.817 Y106.94 E20.0928
G1 X48.044 Y104.329 E20.22865
G1 X47.176 Y101.674 E20.36801
G1 X46.266 Y99.14 E20.50234
G1 X45.269 Y96.592 E20.63884
G1 X44.207 Y94.086 E20.77463
G1 X42.688 Y90.807 E20.95492
G1 X42.493 Y90.405 E20.97721
G1 X42.435 Y90.277 E20.98422
G1 X42.206 Y89.746 E21.01307
G1 X42.145 Y89.594 E21.02125
G1 X41.932 Y89.021 E21.05174
G1 X41.879 Y88.868 E21.05982
G1 X41.712 Y88.338 E21.08755
G1 X41.669 Y88.188 E21.09533
G1 X41.524 Y87.635 E21.12385
G1 X41.488 Y87.483 E21.13165
G1 X41.363 Y86.89 E21.16188
G1 X41.335 Y86.741 E21.16944
G1 X41.27 Y86.339 E21.18976
G1 X41.257 Y86.253 E21.1941
G1 X41.222 Y85.992 E21.20724
G1 X41.213 Y85.911 E21.2113
G1 X41.161 Y85.43 E21.23544
G1 X41.148 Y85.274 E21.24325
G1 X41.117 Y84.748 E21.26954
G1 X41.111 Y84.599 E21.27698
G1 X41.104 Y84.018 E21.30597
G1 X41.106 Y83.854 E21.31415
G1 X41.127 Y83.315 E21.34106
G1 X41.137 Y83.164 E21.34861
G1 X41.178 Y82.69 E21.37235
G1 X41.194 Y82.546 E21.37957
G1 X41.262 Y82.032 E21.40544
G1 X41.273 Y81.953 E21.40942
G1 X41.419 Y81.028 E21.45614
G1 X41.714 Y79.107 E21.5531
G1 X42.055 Y76.431 E21.68769
G1 X42.329 Y73.654 E21.82691
G1 X42.518 Y70.947 E21.96229
G1 X42.631 Y68.228 E22.09806
G1 X42.668 Y65.47 E22.23567
G1 X42.628 Y62.733 E22.37223
G1 X42.596 Y61.925 E22.41257
G1 X42.596 Y61.91 E22.41332
G1 X42.539 Y60.247 E22.49634
G1 X42.537 Y60.111 E22.50312
G1 X42.545 Y59.142 E22.55147
G1 X42.55 Y58.991 E22.55901
G1 X42.604 Y58.016 E22.60772
G1 X42.616 Y57.862 E22.61543
G1 X42.712 Y56.939 E22.66173
G1 X42.732 Y56.788 E22.66933
G1 X42.884 Y55.791 E22.71964
G1 X42.911 Y55.638 E22.72739
G1 X43.091 Y54.749 E22.77265
G1 X43.122 Y54.609 E22.7798
G1 X43.368 Y53.623 E22.8305
G1 X43.411 Y53.469 E22.83848
G1 X43.67 Y52.615 E22.883
G1 X43.711 Y52.489 E22.88961
G1 X43.947 Y51.813 E22.92533
G1 X44.039 Y51.578 E22.93792
G1 X44.146 Y51.335 E22.95117
G1 X44.193 Y51.235 E22.95668
G1 X44.343 Y50.924 E22.97391
G1 X44.631 Y50.44 E23.00201
G1 X44.878 Y50.098 E23.02305
G1 X44.986 Y49.957 E23.03191
G1 X45.127 Y49.783 E23.04309
G1 X45.469 Y49.422 E23.0679
G1 F1500 E18.0679
G1 F600 Z1.3
;MESH:Bot.amf
G0 F3600 X67.003 Y67.781 Z1.3
;TYPE:WALL-INNER
G1 F600 Z0.3
G1 F1500 E23.0679
G1 X67.826 Y67.638 E23.10957
G1 X68.559 Y67.433 E23.14754
G1 X69.302 Y67.146 E23.18728
G1 X70.013 Y66.786 E23.22704
G1 X70.718 Y66.335 E23.2688
G1 X71.312 Y65.861 E23.30671
G1 X71.885 Y65.308 E23.34644
G1 X72.4 Y64.699 E23.38623
G1 X72.853 Y64.043 E23.426
G1 X73.238 Y63.345 E23.46577
G1 X73.552 Y62.61 E23.50565
G1 X73.802 Y61.813 E23.54732
G1 X73.96 Y61.029 E23.58722
G1 X74.036 Y60.276 E23.62498
G1 X74.042 Y59.478 E23.66479
G1 X73.965 Y58.684 E23.70459
G1 X73.813 Y57.902 E23.74433
G1 X73.58 Y57.137 E23.78423
G1 X73.258 Y56.366 E23.82592
G1 X72.894 Y55.697 E23.86391
G1 X72.449 Y55.038 E23.90358
G1 X71.915 Y54.395 E23.94528
G1 X71.372 Y53.865 E23.98314
G1 X70.753 Y53.365 E24.02284
G1 X70.084 Y52.928 E24.0627
